X:1
T:Leonore Overture No. 3
T:Ludwig van Beethoven
T:Arranged for piano by by Gustav Fredrich Kogel
T:Op. 72b
%%score { ( 1 3 6 ) | ( 2 4 5 ) }
L:1/8
Q:1/4=42
M:3/4
K:C
V:1 treble nm="Piano"
V:3 treble 
V:6 treble 
V:2 bass 
V:4 bass 
V:5 bass 
V:1
!ff!"^Adagio" [Gg]6- |!p! [Gg]4"_dim." [Ff]2 | [Ee]2 [Dd]2 [Cc]2 | [B,B]2 [A,A]2 [G,G]2 |!pp! ^F6 | %5
!pp! ^F6 |!pp! ^F6 | G4 B2 | [C_Ec]2!pp! [CE-c]2 [_DE_B]2 | [C_E_A]3 [CA]{/_e} [_D_d]>[Cc] | %10
 [Cc]2 [=B,=B] _B2!p! B | c_d/_B/ _A2- A/G/A/B/ | _B/_A/!<(! .A.A.[FA].A!<)!!mf![_EG] | %13
!pp! [_A,C_E_A]2 [Cc]2 [_B,_B]2 | [C=A]2 [Cc]2 [=B,=B]2 | [A,A]4 [B,B]2 | F2 [Ee]2 [^F^f]2 | %17
 [Gg]2 [Ee]2 [^F^f]2 | [Gg]4 [^F^f]2 |!pp! (3[^FB^f]/ .B/.^d/f (3z/ .d/.f/b (3z/ .f/.b/^d' | %20
 (3z/ b/.^d'/(3.^f'/.B/.^d/ (3.^f/.b/.d'/(3.f'/.B/.d/ (3.f/.b/.d'/(3.f'/.B/.d/ | %21
!pp! (3.e/.B/.e/g (3z/ .e/.g/b (3z/ .g/.b/e' | %22
 (3z/ .b/.e'/(3.g'/.B/.e/ (3.g/.b/.e'/(3.g'/.B/.e/ (3.g/._b/.e'/(3.g'/.b/.e'/ | %23
 [gg'] (3z/ ._d/._B/ [_D=EG] (3z/ .B/.G/ [_B,DE] (3z/ .G/.D/ | %24
 [G,_B,] (3z/ ._d/._B/ [_D=EG]"_cresc." (3z/ .B/.G/ [B,DE] (3z/ .d/.B/ | ._e.e.e.e.e (3e/ z/ z/ | %26
!ff! [_Ac]/8C/8_D/8_E/8F/8G/8A/8_B/8 c/8E/8F/8G/8A/8B/8c/8_d/8 _e/8A/8B/8c/8d/8e/8f/8g/8 _a/8c/8d/8e/8f/8g/8a/8_b/8 c'/8a/8g/8f/8e/8d/8c/8B/8 A/8A/8G/8F/8E/8D/8C/8_B,/8 | %27
 _A,!p! .[_e_ac'_e'].[eac'e'].[eac'e'].[eac'e'].[eac'e'] | %28
!ff! [_D_E_B_d]!p! .[_e_b_d'_e'].[ebd'e'].[ebd'e'].[ebd'e'].[ebd'e'] | %29
 [C_E_Ac]!p! [_e_ac'_e'] [CE=Ac]!p! [e=ac'e'] [=B,=DG=B]!p! [dgbd']/!mf! F/4D/4 | %30
 .B,/ z/ [fbd'f']/ D/4B,/4 .G,/ z/!p! .[fd'f'].[fd'f'].[fd'f'] | %31
 [f-d'f'-]2 [ff']>[=e=e'] !>![ee']/[dd']/ z/ [cc']/ | %32
{/bc'd'} [cc'][Bb] .[G,B,DF].[G,B,DF].[G,B,DF].[G,B,DF]!pp! | %33
!p!!8va(! [af'a']2- [af'a']>[ge'g'] [ge'g']/[fd'f']/ z/ [ec'e']/ | %34
{/d'e'f'} [ec'e'][dbd']!8va)! [G,B,DF][G,B,DF][G,B,DF] (3[G,B,DF]/[fd'f']/[fd'f']/!pp! | %35
 [fd'f'] z z2[Q:1/4=25] !fermata!z2 ||[M:4/4][K:treble][Q:1/4=220]"^Allegro"!p! C2 E4 G2 | A6 G2 | %38
 E2 C2 .A,2 .G,2 | G,2 z2 z4 | E2 G4 c2 | d6 c2 | G2 E2 .D2 .C2 | C2 z2 z4 | D2 F4 B2 | B6 B2 | %46
 F2 B4 d2 | e6!p! d2 |!pp! (D2"_cresc." F4) .B2 | (F2 B4) .d2 | (F2 B4) .d2 | (B2 d4) .f2 | %52
 (B2 d4) .f2 | (d2 f4) .b2 | (d2 f4) .b2 | (f2 b4) .d'2 | (f2 b4) .d'2 | (b2 d'4) .f'2 | %58
 (b2 d'4) .f'2 | (b2 d'4) .f'2 |!f!!8va(! (b2 d'4) .g'2 | (b2 d'4) .g'2 | (b2 d'4) .g'2 | %63
 (b2 d'4)!f! .g'2 |!mp! !/-![bd'g']2!<(! g2 !/-![bd'g']2 g2 | !/-![bd'g']2 g2 !/-![bd'g']2 g2 | %66
 !/-![bd'g']2 g2 !/-![bd'g']2 g2 | !/-![bd'g']2 g2 !/-![bd'g']2 g2!<)! |!ff! cc'ee' ee'gg' | %69
 aa'aa' aa'gg'!8va)! | ee'cc' AaGg | !/-!G2 g2 !/-!G2 g2 | cc'Gg FfEe | !/-!E2 e2 !/-!E2 e2 | %74
 (ge).d.c (ec).A.G | (cG).F.E (GE).D.C |!mf! !/-![GBd]2 g2 !/-![GBd]2 g2 | %77
 !/-![GBd]2 g2 !/-![GBd]2 g2 | (d'!ff!b).a.g (bg).e.d | (gd).c.B (dB).A.G | %80
!mf! !/-![ceg]2 c'2 !/-![ceg]2 c'2 | !/-![ceg]3 c'3!ff! .c'.b |!ff! (ba).a.a (a^g).b.a | %83
 (a=g).f.e (dc).c'.b | (ba).a.a (a^g).b.a | (a=g).c'.e (ed).f.a | (ac).e.g (gB).d.g | %87
 (ge).b.c' (c'd).^g.a | (ac).^f.g (gB).f.g | (ge).c'.c' (c'd).a.a | (ac).g.g (gB).g.g | %91
!p! [Gceg]8- | [Gceg]2!<(! [cc']2 .[ee']2 .[gg']2!<)! |!f! [gbd'g']8- | %94
 [gbd'g']2 [ff']2 .[dd']2 .[Gg]2 |!p! [Gceg]4!<(! [Gceg]2 [cc']2 | %96
 [cc']2 [ee']2 .[ee']2 .[gg']2!<)! |!f! [gbd'g']8- | [gbd'g']2 [ff']2 .[dd']2 .[Gg]2 | %99
!ff! gg'ee' cc' z [Gg] | z [Ee] z [Cc] z [A,A] z [G,G] |!p! [^A,^F]2!<(! ^A4 [^C^c]2!<)! | %102
!f! [=D=d]6 [^C^c]2 |!p! ^A2!<(! ^c4 [Gg]2!<)! |!f! [=A=a]6 [Gg]2 |!p! B2 [B^f]4 .[Bb]2 | %106
 B2 [B^f]4 .[Bb]2 | .e2 [eg^a]4 .[ege']2 | .e2 [eg^a]4 .[ege']2 | [^f^d']^d[fb]d [=cdf=c']4 | %110
!p! !/-![eb]2 B2 [^ceg^c']4 |!p! !/-![^d^fb]2 B2 [=cdf=c']4 |!p! !/-![eb]2 B2 [^ceg^c']4 | %113
!f! [^db]3 [e^c'] [db]3 [ec'] | [^db]3 [e^c'] [db]3 [ec'] | [^db]^c'[db]c' [db]c'[db]c' | %116
 [^db]^c'[db]c' [db]c'[db]c' | [^db]2!>(! z2 z4 | z8!>)! |!p! [E-^G]8 | [B,-^FB-]8 | %121
 [B,EB]4 [^C^c]2 [^D^d]2 | [Ee]4 [^F^f]2 [^G^g]2 | [Bb]2 [Aa]2 [Aea]4- | [Aea]4 [^Ge^g]4 | %125
 [=G-^ce-=g-]8 | [G=ceg]8 |!p! [Acfa]8 | [cc']2 [_B_b]2 z2 [Dd]2 | [FAf]8 | [EGe]2 z2 z4 | %131
 [_Bg_b]8 | g4 z2 [_E_e]2 |"_cresc." g8 | [^FA^f]2 z2 d'2 =f2 | a8 | [^GB^g]2 z2!mf! e'2 =g2 | %137
!pp! [g^a]8- | [ga]2 z2 z4 | b8- | [^fb]2 z2 z4 | B8- | B8- | B2 x2 b4- | b2 .B2 b4- | b2 .B2 b4- | %146
 b2 .B2 b4- | b2 .b2 .B2 .[ab]2 | .B2 .[^gb]2 .e2 .[ge']2 | .e2 .[ae']2 .e2 .[=d'e']2 | %150
 .e2 .[^c'e']2 .^e2 .[b^e']2 | .^f2 .[a^f']2 .^g2 .[=e'^g']2 | .a2 .[^f'a']2 .a2 .[e'a']2 | %153
 .[a^d'a']2!pp! z2 .B2 .[^F^f]2 | .[Aa]2 .[Bb]2 [^c^c']4- | [cc']2 [Bb]2 .[Aa]2 .[^F^f]2 | %156
 [Aa]2 ^f2 .^c2 .B2 | .[^GB]2 z2 .B2 .[Ee]2 | .[^G^g]2 .[Bb]2 [^c^c']4- | %159
 [cc']2 [Bb]2 .[^G^g]2 .[Ee]2 | [^G^g]2 e2 .^c2 .B2 | .[A^c]2 ^c'2 a z c'2 | b z ^d'2 b z d'2 | %163
 ^c' z e'2 c' z e'2 | ^d' z ^f'2 d' z [d'f']2 |!f! !/-![^fb^d']2 ^f'2 !/-![fbd']2 f'2 | %166
 !/-![^fb^d']2 ^f'2 !/-![fbd']2 f'2 | [^gbe'^g']2 [^f^b^d'^f']2-!ff! [fbd'f'] z [e^g^c'e']2- | %168
!ff! [egc'e'] z [^d=b^d']2-!ff! [dbd'] z [^cea^c']2- | %169
!ff! [ceac'] z [B^c^gb]2-!ff! [Bcgb] z [A-c^f-a-]2 | %170
!ff! [Acfa] z [A=c^fa]2-!ff! [Acfa] z [ABfa]2- |!ff! [ABfa] z z2 z2 [^GBe^g]2- | %172
!ff! [GBeg] z z2 z2 [A^c^fa]2- |!ff! [Acfa] z z2 z2 [^F-A-^d-^f]2 | [FAdf] z z2 z2 [^G,E]2- | %175
 [G,E]2 [^GB]4 [EG]2 |!f! z2 B4- (3B^c^d |!p! e2 [^gb]4 [eg]2 |!f! z2 b4- (3b^c'^d' | %179
 ([e^ge']2 b2) .a2 .g2 |"_dim." (b2 ^g2) .^f2 .e2 | (^g2 e2) .^c2 .B2 | (e2 B2) .A2 .^G2 | %183
!p! (B2"_dim." ^G2) .^F2 .E2 | (B2 ^G2) .^F2 .E2 | (B2 ^G2) .^F2 .E2 | (B2 ^G2) .^F2 .E2 | %187
!pp! (B2 =G2) .^F2 .E2 | (B2 G2) .^F2 .E2 | (B2 G2) .^F2 .E2 | (B2 G2) .^F2 .E2 |!mf! e8- | %192
!mf! e8- | e8- | e8 |!p! [Gg]8- | [Gg]6!p! .[Ff]2 | [Ff]2 [Ee]2 z2 .[Dd]2 | [Dd]2 [Cc]2 z2 .[Cc]2 | %199
!mf! e8- |!mf! e8- | e8- | e8 |!p! [Gg]8- | [Gg]6!p! .[Ff]2 | [Ff]2 [Ee]2 z2 .[Dd]2 | %206
 [Dd]2 [^C^c]2 z2 .[Cc]2 | [_Bg_b]8- | [Bgb]6 .[Afa]2 | ([Afa]2 [Geg]2) z2 .[Fdf]2 | %210
 ([Fdf]2 [E^ce]2) z2 .[Ece]2 |!mf! e8- | e8- | e8- | e8 |!p! [Ee]8- | [Ee]6!p! .[Dd]2 | %217
 ([Dd]2 [^C^c]2) z2 .[B,B]2 | ([B,B]2 A2) z2 .A2 |!mf! a8- | a8- | a8- | a8 |!p! [ee']8- | %224
 [ee']6!p! .[dd']2 | ([dd']2 [^c^c']2) z2 .[Bb]2 | ([Bb]2 [^A^a]2) z2 .[Aa]2 |!8va(! [ge'g']8- | %228
 [ge'g']6 [^fd'^f']2 | [^fd'^f']2 [e^c'e']2!8va)! z2 .[dbd']2 | ([dbd']2 [^c^a^c']2) z2 .[cac']2 | %231
 ^f2 d2 ^c2 B2 | B4 B4 | [ge'g']2 [e^c'e']2 [dbd']2 [^c^ac']2 | [^c^a^c']4 [cac']4 |!mf! d'8- | %236
 d'8- | d'8- | d'8 |!p! [Dd]8- | [Dd]6!p! .[Cc]2 | [Cc]2 B2 z2 .A2 | A2 G2 z2 .G2 | [_A=f_a]8- | %244
 [Afa]6 .[G_eg]2 | ([G_eg]2 [Fdf]2) z2 .[_Ece]2 | ([_Ec_e]2 [DBd]2) z2 .[DBd]2 | g2 _e2 d2 c2 | %248
 c4 c4!p! |!8va(!"_cresc." [_af'_a']2 [fd'f']2 [_ec'_e']2 [dbd']2 | [dbd']4 [dbd']4 | %251
!f! [_egc'_e']2!8va)! z2 z4 | .[_Ec]2 [c_e]4!f! .[cg]2 | .[c_e_b]2 [ce_a]4!f! .[ce]2 | %254
 .[_Ac]2 [c_e]4!f! .[ce_a]2 | .[_df_b]2 [f_a]4!f! .[df]2 | .[F_d]2 [df]4!f! .[d_a]2 | %257
 .[=dfc']2 [df_b]4!f! .[df]2 | .[_Bd]2 [df]4!f! .[df_b]2 |!mf! [gc']_e[g_b]e !/-![gb]2 e2 | %260
 [g_b]c[gbc']c !/-![gbc']2 c2 | !/-![f_ac']2 c2 !/-![fac']2 c2 | !/-![_e=ac']2 c2 !/-![eac']2 c2 | %263
 !/-![gc'_e']2 _e2 [egc'e']4 | [^fc'_e']_e[fc'e']e [fc'e']4 | [=ac'd']d[ac'd']d- [dac'd']4 | %266
 [g=bd']d[gbd']d- [dgbd']4 | z!ff! CD_E FG=A=B | c_EFG ABcd | _ecde fgab | %270
!ff! .[cc']2 .[dd']2 .[_e_e']2 .[=A,=A]2 | %271
[Q:1/4=80]"^ten." [_B,_B]4 z!p![Q:1/4=140]"^a piacere" B/B/ BB | _B4 z B/B/ BB | %273
 _BF/F/ FF FD/D/ DD | D_B,DB, DDFD | FF_BF BFBF |[Q:1/4=80] !fermata!_B8 | %277
[Q:1/4=220]"^Tempo I." z8 |!p! [Dd]8 | [Ff]8 | [_B_b]8 | [cc']8 | [Ff]8 | [Aa]8 | [cc']8 | [dd']8 | %286
 [_B_b]8 | [Gg]8 | [_e_e']8 |"_cresc." [dd']8 | [ff']8 | [cc']8 | [ff']8 | %293
[Q:1/4=80]"^ten." [_B,_B]4 z!p![Q:1/4=140]"^a piacere" B/B/ BB | _B4 z B/B/ BB | %295
 _BF/F/ FF FD/D/ DD | D_B,DB, DDFD | FF_BF BFBF |[Q:1/4=80] !fermata!_B8 | %299
[Q:1/4=220]"^Tempo I." z8 |!p! [_B,_B]8 | [_D_d]8 | [_G_g]8 | [_A_a]8 | [_D_d]8 | [Ff]8 | [_A_a]8 | %307
 [_B_b]8 | [_G_g]8 | [_e_e']8 | [_c_c']8 |"_cresc." [_B_b]8 | [_d_d']8 | [_A_a]8 | [_d_d']8 | %315
!p! A4 [^C^c]4 |!>(! A4 [^C^c]4 | A4 [=D=d]4!>)! |!pp! A4"_dim." [Dd]4 | A4 [Dd]4 | A4 [Dd]4 | %321
!ppp! =c4 [Dd]4 | c4 [Dd]4 | c4 [Dd]4 | c4 [Dd]4 |!ppp! c2 [Dd]2"_cresc." c2 [Dd]2 | %326
 c2 [Dd]2 c2 [Dd]2 | c2 [Dd]2 c2 .[Dd].E | .^F.G.A.B .c.d.e.^f | g2!p! b4 d'2 | e'6 d'2 | %331
 (b2 g2) .e2 .d2 | d2 z2 z4 | (g2 d2) .c2 .B2 | B2 z2 z4 | (d'b).a.g (bg).e.d | (gd).c.B (dB).A.G | %337
 G2 ^F2 F2 z2 | [CD]A,[CD]A, [CD]A, [CD] z |!p! (a'^f').d'.c' (f'd').c'.a | (d'c').a.^f (c'a).f.c | %341
{/d} c2 B2 z gg'^f' | (^f'e').e'.e' (e'^d').f'.e' | (e'=d').c'.b .agg'^f' | %344
 (^f'e').e'.e' (e'^d').f'.e' | (3(=d'2 g'2) .b2 (3(b2 a2) .e'2 | (3(e'2 g2) .d'2 (3(d'2 ^f2) .d'2 | %347
 (3(d'2 b2) .g'2 (3(g'2 a2) .e'2 | (3(e'2 g2) .d'2 (3(d'2 ^f2) .d'2 | (d'b).g'.g' (g'a).e'.e' | %350
 (e'g).d'.d' (d'^f).d'.d' |!pp! [dd']8- | [dd']8- | [dd']8- | [dd']8 |!p! D2 F4 B2 | F2 B4 d2 | %357
 F2 B4 d2 | B2 d4 f2 | [Dd]6 .[Dd]2 | [^D^d]6 .[Dd]2 | [Ee]6 .[Ee]2 | [Ff]6"_cresc." .[Ff]2!p! | %363
 .[^F^f]2 z2 .[Gg]2 z2 | .[^G^g]2 z2 .[Aa]2 z2 | .[_B_b]2 z2 .[=B=b]2 z2 | %366
 .[cc']2 z2 .[^c^c']2 z2 | .[dd']2 z2 .[^d^d']2 z2 | .[ee']2 z2 .[ff']2 z2 | %369
 .[^f^f']2 z2 .[gg']2 z2 | [=f=f']2 z2 [dd']2 z2 | [Bb]2 z2 [Gg]2 z2 | [Ff]2 z2 [Dd]2 z2 | %373
!ff! [B,B]2 z2 [A,A]2 z2 | [G,G]2 z2 [^F,^F]2 z2 | [G,G]2 z2 [Gg]2 z2 | [Aga]2 z2 [Bgb]2 z2 | %377
!mf! cc'ee' ee'gg' | aa'aa' aa'gg' | ee'cc' AaGg | !/-!G2 g2 !/-!G2 g2 | cc'Gg FfEe | %382
 !/-!E2 e2 !/-!E2 e2 |!ff! (ge).d.c (ec).A.G | (cG).F.E (GE).D.C | %385
!mf! !/-![FGB]2 D2 !/-![FGB]2 D2 | !/-![FGB]2 D2 !/-![FGB]2 D2 |!ff! (d'b).a.g (bg).f.d | %388
 (gf).d.B (dB).G.F |!mf! e8- | e2!f! c'2 c'2 c'2 | c'2 f2 c'4- | c'2 ^f2 c'4- | c'2 =b2 d'4- | %394
 d'2 c'2 c'4- | c'2 b2 d'4 | d'2 c'2 c'4 | c'2 b2 c'4 | c'2 b2 c'4 | %399
!f! [db][_ec'][db][ec'] !/-![db]2 [ec']2 | !/-![db]2 [_ec']2 !/-![db]2 [ec']2 | [db]2!>(! z2 z4 | %402
 z8!>)! |!p! [C=E]8 | [G,-DG-]8 | [G,CG]4 [A,A]2 [B,B]2 | [Cc]4 [Dd]2 [Ee]2 | [Gg]2 [Ff]2 [Fcf]4- | %408
 [Fcf]4 [Ece]4 | [=Ac-_e-]8 | [_Ace]8 |!p! [_A_df]8 | d4 z2 _B2 | [F_d]8 | [_Ac]2 z2 z4 | %415
 [_B_e_g]8 | _e4 z2 _c2 |"_cresc." [_G_e]8 |!p! =d2 z2 _b2 _d2 | [_Af]8 |!>(! =e2 z2 c'2 e2!>)! | %421
!pp! [_e^f]8- | [ef]2 z2 z4 | g8 | g2 z2 z4 | G8- | G8 | G2 G2 g4- | g2 G2 g4- | g2 G2 g4- | %430
 g2 G2 g4 | [Gg]2 .g2 .G2 .[fg]2 | .G2 .[eg]2 .c2 .[gc']2 | .c2 .[fc']2 .c2 .[e_bc']2 | %434
 .c2 .[fac']2 .^c2 .[ga^c']2 | .d2 .[fad']2 .e2 .[ae']2 | .f2 .[d'f']2 .f2 .[c'f']2 | %437
!pp! .[fbf']2 z2 .G2 .[Dd]2 | .[Ff]2 .[Gg]2 [Aa]4- | ([Aa]2 [Gg]2) .[Ff]2 .[Dd]2 | %440
 ([Ff]2 d2) .A2 .G2 | .[EG]2 z2 .G2 .[Cc]2 | .[Ee]2 .[Gg]2 [Aa]4- | ([Aa]2 [Gg]2) .[Ee]2 .[Cc]2 | %444
 ([Ee]2 c2) .A2!pp! .G2 | .[FA]2"_cresc." a2 f z a2 | g z b2 g z b2 | a z c'2 a z c'2 | %448
 b z d'2 b z [dbd']2 |!ff! !/-![dgb]2 d'2 !/-![dgb]2 d'2 | !/-![dgb]2 d'2 !/-![dgb]2 d'2 | %451
 [egc'e']2 [debd']2- [debd'] z [ceac']2- | [ceac'] z [Bcgb]2- [Bcgb] z [Acfa]2- | %453
 [Acfa] z [G^ceg]2- [Gceg] z [FAdf]2- | [FAdf] z [F_Adf]2- [FAdf] z [FGdf]2- | %455
 [FGdf] z z2 z2 [EGce]2- | [EGce] z z2 z2 [FAdf]2- | [FAdf] z z2 z2 [DGBd]2- | %458
 [DGBd] z z2 z2 [dd']2- |!p! [dd']8- | [dd']2 [cc']2 [Bb]2 [Aa]2 | [Gg]2 [Aa]2 [Bb]2 [cc']2 | %462
 [dd']2 [ee']2!p! [ff']2 [^f^f']2 |"_cresc." [gg']4 [^g^g']4 |!f! [aa']8- |!>(! [aa']8-!>)! | %466
!p! [aa']4 [=f=f']4 | [ee']8 | [dd']8 | [cc']8- | [cc']4 [cc']3 [gg'] | [gg']2 [ff']2 [fc'f']4- | %472
"_cresc." [fc'f']4 [ec'e']4 | [_e^fa_e']8 | [df_ad']8- |!>(! [d-f-ad'-]8 | [dfgd']8!>)! | %477
!p! [ee']8 |"_dim." [gg']2 [ff']2 z2 [Aa]2 |!pp! [cc']8 | [Bb]2 z2 z2 g2 | c'2 b2 z2 b2 | %482
 e'2 d'2 z2 G2 | [DG-d]8 |!p! [CGc]2!pp! z2 z2 g2 | c'2 b2 z2 b2 | e'2 d'2 z2 G2 | [EG-e]8 | %488
!p! [DGd]2!pp! z2 z2 g2 | e'2 d'2 z2 d'2 | g'2 f'2 z2 d2 | g2!p! f2 z2!pp! d'2 | g'2 f'2 z2 d2 | %493
 g2!p! f2 z2!p! d'2 | g'2 f'2 z2 d2 | g2!p! f2 z2 d2 | g2!p! f2 z2!pp! d2 | g8 | f2 z2 z2 d2 | g8 | %500
 f2 z2 z2 d2 |!pp! g8- | g8- | (g2 f2) .d2 .B2 | .G2 .F2 .D2 .C2 | .B,2 z2 z4 | z2 .D2 .E2 .F2 | %507
 .B,2 z2 z4 | z2 .F2 .G2 ._A2 | .B,2 .B2 .c2 .d2 | z2 .d2 .e2 .f2 | z2 .d2 .e2 .f2 | %512
 z2 .d2 .e2 .f2 ||[Q:1/4=280]"^Presto" z c"_cresc."gf edcB | agfe dcba | gfed c'bag | fed'c' bagf | %517
 e'd'c'b agf'e' | d'c'ba gf'e'd' | c'bag f'e'd'c' | bagf' e'd'c'b | agab c'd'e'f' | gabc' d'e'f'g | %523
 abc'd' e'f'ga | bc'd'e' f'gab | c'c'd'e' f'gab | c'c'd'e' f'gab | c'c'd'e' f'gab | %528
 c'c'd'e' f'gab | c'c'd'e' f'gab | c'c'd'e' f'gab | c'c'd'e' f'gab | c'd'e'f' g'f'e'd' | %533
!ff! [cec']2 [ec'e']4 [gc'g']2 | [ac'a']6 [gc'g']2 | ([ege']2 [cc']2) .[Gcg]2 .[Ece]2 | %536
 ([cec']2 [Gg]2) .[EGe]2 .[CEc]2 | .[DFd]2 .[CEc]2 .[DFd]2 .[CEc]2 | .[DFd]2 [CEc]4 .[Ece]2 | %539
 .[Fcf]2 .[Ece]2 .[Fcf]2 .[Ece]2 | .[Fcf]2 [Ece]4 .[cc']2 | ([dc'd']2 [cc']2) .[cc']2 .[cc']2 | %542
 ([dc'd']2 [cc']2) .[cc']2 .[cc']2 | ([fc'f']2 [ee']2) .[ee']2 .[ee']2 | %544
 ([fc'f']2 [ee']2) .[ee']2 .[ee']2 | [fc'f']2 [fc'f']4 [ec'e']2 | [^dc'^d']2 [ec'e']4 [=dc'=d']2 | %547
 [cc']2 [ac'a']4 [gc'g']2 | [^fc'^f']2 [gc'g']4 [=fc'=f']2 | [ec'e']2 [fc'f']2 [dc'd']2 [ec'e']2 | %550
 [cc']2 [ac'a']2 [fc'f']2 [gc'g']2 | [ec'e']2 [fd'f']2 [dc'd']2 [ec'e']2 | %552
 [cc']2 [ac'a']2 [fc'f']2 [gc'g']2 | [ec'e']6 .[gd']2 | .[ec']2 .[gd']2 .[ec']2 .[gd']2 | %555
 .[ec']2 .[gd']2 .[ec']2 .[gd']2 | .[ec']2 z2 z4 | [gd'f']6 .[c'e']2 | %558
 .[gd']2 .[c'e']2 .[gd']2 .[c'e']2 | .[gd']2 .[c'e']2 .[gd']2 .[c'e']2 | [gd']2 z2 z4 | %561
 ([d'f']2 [c'e']2) .[c'e']2 .[gd']2 | (d'2 c'2) .b2 .c'2 | (d'2 c'2) .b2 .c'2 | %564
 (d'2 c'2) .b2 .c'2 | ([e'g']2 [d'f']2) .[d'f']2 .[c'e']2 | ([c'e']2 [bd']2) .[^a^c']2 .[bd']2 | %567
 ([=c'e']2 [bd']2) .[^a^c']2 .[bd']2 | ([=c'e']2 [bd']2) .[^a^c']2 .[bd']2 | %569
!p! [e=c'e']2 z2 [dbd']2 z2 | [cac']2 z2 [Bgb]2 z2 | [Afa]2 z2 [Geg]2 z2 | [Fdf]2 z2 [FAdf]2 z2 | %573
 [FGdf]2 z2 [Fcdf]2 z2 | [FBdf]2 z2 [ABda]2 z2 | [Gceg]2 z2 [Acda]2 z2 | %576
 [Gceg]2 z2 [GBdg]2!ff! z2 | [ec'e']2 z2 [dbd']2 z2 | [cac']2 z2 [Bgb]2 z2 | [Afa]2 z2 [Geg]2 z2 | %580
 [Fdf]2 z2 [FAdf]2 z2 | [FGdf]2 z2 [Fcdf]2 z2 | [FBdf]2 z2 [ABda]2 z2 | [Gceg]2 z2 [Acda]2 z2 | %584
 [Gceg]2 z2 [GBdg]2 z2 | [Gceg]2 z2 [A^cea]2 z2 | [Adfa]2 z2 [GBdg]2 z2 | [Gceg]2 z2 [A^cea]2 z2 | %588
 [Adfa]2 z2 [GBdg]2 z2 |!p! f8- | f4 e4 | f8- | f4 e4 |"_cresc." !/-![df]2 F2 !/-![df]2 F2 | %594
 !/-![^d^f]2 ^F2 !/-![df]2 F2 | !/-![eg]2 G2 !/-![eg]2 G2 | !/-![e^g]2 ^G2 !/-![eg]2 G2 | %597
 !/-![fa]2 A2 !/-![fa]2 A2 | !/-![g_b]2 _B2 !/-![gb]2 B2 | !/-![^g=b]2 B2 !/-![gb]2 B2 | %600
 !/-![ac']2 c2 !/-![ac']2 c2 | !/-![^a^c']2 ^c2 !/-![bd']2 d2 | !/-![=c'^d']2 ^d2 !/-![^c'e']2 e2 | %603
!8va(! !/-![=d'f']2 f2 !/-![^d'^f']2 ^f2 | !/-![e'g']2 g2 !/-![e'^g']2 ^g2 | %605
!ff! !/-![c'_e'a']2 a2 !/-![c'e'a']2 a2 | !/-![c'_e'a']2 a2 !/-![c'e'a']2 a2 | %607
 !/-![c'=e'a']2 a2 !/-![c'e'a']2 a2 | !/-![c'f'a']2 a2 !/-![c'f'a']2 a2 | %609
!fff! !/-![=bd'f'_a']2 _a2 !/-![bd'f'a']2 a2 | !/-![bd'f'_a']2 _a2 !/-![bd'f'a']2 a2 | %611
 !/-![bd'f'_a']2 _a2 !/-![bd'f'a']2 a2 | !/-![bd'f'g']2 g2 !/-![bd'f'g']2 g2 | %613
 [cec']2 [ee']4 [gg']2 | !>![aa']6 [gg']2 | [dfd']2 [ff']4 [gg']2 | !>![aa']6 [gg']2 | %617
 (c'2 e'2) .[gg']2 .[gg']2 | ([aa']2 [gg']2) .[gg']2 .[gg']2 | (d'2 f'2) .[gg']2 .[gg']2 | %620
 (!>![aa']2 [gg']2) .[gg']2 .[gg']2 | [e'g']gg'g !/-!g'2 g2 | g'g!8va)! z [ee'] z [cc'] z [Gg] | %623
 z e z c z G z E | z C z G, z C z G, | ([gc'g']2 e'2) .c'2 .g2 | (e'2 c'2) .g2 .e2 | %627
 ([cec']2 g2) .e2 .c2 | (e'2 c'2) .g2 .e2 | ([cec']2 g2) .e2 .c2 | (e'2 c'2) .g2 .e2 | %631
 [cegc']2 z2 z4 | [cegc']2 z2 z4 | [cegc']2 z2 z4 | z8 | [cegc']2 z2 z4 | z8 | %637
 [cegc']2 z2[Q:1/4=30] !fermata!z4 |] %638
V:2
 [G,,,G,,] z z4 | [G,,G,]4 [F,,F,]2 | [E,,E,]2 [D,,D,]2 [C,,C,]2 | %3
 [B,,,B,,]2 [A,,,A,,]2 [G,,,G,,]2 | ^F,6 | ^F,6 | ^F,6 |!p! G,4 x2 | x2 _E,2- [E,G,]2 | %9
 [_E,_A,]3 A, A,2 | [=D,F,]3 z!mp!!>(! z2!>)! | z F, _E,3 E, | [_A,,_E,] z z2 z [_E,,_E,] | %13
 [_A,,,_A,,]4 [_G,,,_G,,]2 | [F,,,F,,-]2 =A,,2 =B,,2 | C,4 =B,,2 | z2 G,2 ^F,2 | E,2 G,2 ^F,2 | %18
 E,6 | ^D,[K:treble] (3z/ .B,/.^D/ ^F (3z/ .D/.F/ B (3z/ .F/.B/ | ^d z!p! B,2 A,2 | %21
 B,!pp! (3z/ .B,/.E/ G (3z/ .E/.G/ B (3z/ .G/.B/ | e z[K:bass]!p! [E,,E,]2 [D,,D,]2 | %23
 (3[_D,,_D,]/!pp! ._B,,,/.D,,/ G,, (3z/ .D,,/.G,,/ _B,, (3z/ .G,,/.B,,/ _D, | %24
 (3z/ ._B,,,/._D,,/ G,, (3z/ .D,,/.G,,/ _B,, (3z/ .G,,/.B,,/ (3_D,/G,,/B,,/ | %25
 (3._D,/.G,/._B,/(3._D/.G,/.B,/ (3.D/.G,/.B,/(3.D/.G,/.B,/ (3.D/.B,/.G,/(3._E,/.D,/._B,,/ | %26
!f!!ped! (3[_A,,C,_E,_A,]/[A,,C,E,A,]/[A,,C,E,A,]/(3[A,,C,E,A,]/[A,,C,E,A,]/[A,,C,E,A,]/ (3[A,,C,E,A,]/[A,,C,E,A,]/[A,,C,E,A,]/(3[A,,C,E,A,]/[A,,C,E,A,]/[A,,C,E,A,]/ (3[A,,C,E,A,]/[A,,C,E,A,]/[A,,C,E,A,]/(3[A,,C,E,A,]/[A,,C,E,A,]/[A,,C,E,A,]/!ped-up! | %27
!ped! [_A,,,_A,,]!ped-up![K:treble] .[_A,C_A].[A,CA].[A,CA].[A,CA].[A,CA] | %28
[K:bass]!ped! [G,,,G,,]!ped-up![K:treble] .[G,_B,_EG].[G,B,EG].[G,B,EG].[G,B,EG].[G,B,EG] | %29
[K:bass]!f! [_A,,,_A,,] [_A,C_E]!f! [^F,,^F,] [F,=A,CE]!f! [=F,,=F,] [F,G,=B,D]/ F,,/4D,,/4 | %30
 .B,,,/ z/ [G,B,D]/ D,,/4B,,,/4 .G,,,/ z/ .[G,B,D].[G,B,D].[G,B,D] | %31
 [G,B,D]!ped! [G,,B,,][B,,D,][D,F,] [F,B,]!ped-up![B,D]/[CE]/ | %32
 [CE](3[DF]/!pp! .B,,,/.D,,/ (3.F,,/.E,,/.G,,/(3.F,,/.A,,/.F,,/ (3.D,,/.F,,/.D,,/(3.B,,,/.D,,/.B,,,/ | %33
 [G,,,G,,]!ped! [B,,D,][D,F,][F,B,] [B,D]!ped-up![DF]/[EG]/ | %34
 [EG](3[FG]/!pp! .B,,,/.D,,/ (3.F,,/.E,,/.G,,/(3.F,,/.A,,/.F,,/ (3.D,,/.F,,/.D,,/(3.B,,,/.D,,/.B,,,/ | %35
 [G,,,G,,]2 [A,,,A,,]2 !fermata![B,,,B,,]2 ||[M:4/4]!pp!!ped! C,,C,C,,C, C,,C,!ped-up!C,,C, | %37
!ped! !/-!C,,2 C,2 !/-!C,,2 C,2!ped-up! |!ped! !/-!C,,2 C,2!ped-up! !/-!C,,2 C,2 | %39
!ped! !/-!C,,2 C,2 !/-!C,,2 C,2!ped-up! |!ped! !/-!C,2 E,2!ped-up!!ped! !/-!C,2 E,2!ped-up! | %41
!ped! !/-!C,2 E,2!ped-up!!ped! !/-!C,2 E,2!ped-up! |!ped! !/-!C,2 E,2!ped-up! !/-!C,2 E,2 | %43
!ped! !/-!C,2 E,2 !/-!C,2 E,2!ped-up! |!ped! !/-![C,D,]2 F,2!ped-up!!ped! !/-![C,D,]2 F,2!ped-up! | %45
!ped! !/-![C,D,]2 F,2!ped-up!!ped! !/-![C,D,]2 F,2!ped-up! | %46
!ped! !/-![C,D,]2 F,2!ped-up!!ped! !/-![C,D,]2 F,2!ped-up! | %47
!ped! !/-![C,D,]2 F,2!ped-up!!ped! !/-![C,D,]2 F,2!ped-up! | %48
!ped! !/-![C,D,F,]2 B,2 !/-![C,D,F,]2!ped-up! B,2 | %49
!ped! !/-![C,D,F,]2 B,2 !/-![C,D,F,]2!ped-up! B,2 | %50
!ped! !/-![C,D,F,]2 B,2 !/-![C,D,F,]2!ped-up! B,2 | %51
!ped! !/-![C,D,F,]2 B,2 !/-![C,D,F,]2!ped-up! B,2 | %52
!ped! !/-![C,D,F,]2 B,2 !/-![C,D,F,]2!ped-up! B,2 | %53
!ped! !/-![C,D,F,]2 B,2 !/-![C,D,F,]2!ped-up! B,2 | %54
!ped! !/-![C,D,F,]2 B,2 !/-![C,D,F,]2!ped-up! B,2 | %55
!ped! !/-![C,D,F,]2 B,2 !/-![C,D,F,]2!ped-up! B,2 | %56
!ped! !/-![C,D,F,]2 B,2 !/-![C,D,F,]2!ped-up! B,2 | %57
!ped! !/-![C,D,F,]2 B,2 !/-![C,D,F,]2!ped-up! B,2 | %58
!ped! !/-![C,D,F,]2 B,2 !/-![C,D,F,]2!ped-up! B,2 | %59
!ped! !/-![C,D,F,]2 B,2 !/-![C,D,F,]2!ped-up! B,2 | %60
!ped! !/-![C,D,F,]2 B,2 !/-![C,D,F,]2!ped-up! B,2 | %61
!ped! !/-![C,D,F,]2 B,2 !/-![C,D,F,]2!ped-up! B,2 | %62
!ped! !/-![C,D,F,]2 B,2 !/-![C,D,F,]2!ped-up! B,2 | %63
!ped! !/-![C,D,F,]2 B,2 !/-![C,D,F,]2!ped-up! B,2 |!ped! [C,,C,]2 [C,F,G,]B, !/-![C,F,G,]2 B,2 | %65
 !/-![C,F,G,]2 B,2 !/-![C,F,G,]2 B,2 | !/-![C,F,G,]2 B,2 !/-![C,F,G,]2 B,2 | %67
 !/-![C,F,G,]2 B,2 !/-![C,F,G,]2 B,2!ped-up! | [C,E,G,C]2!ped! [E,E]4!ped-up! [G,G]2 | %69
!ped! [A,CA]6 [G,G]2!ped-up! |!ped! ([E,E]2 [C,C]2)!ped-up! .[A,,A,]2 .[G,,G,]2 | %71
!ped! [G,,G,]8!ped-up! |!ped! ([C,C]2 [G,,G,]2)!ped-up! .[F,,F,]2 .[E,,E,]2 | %73
!ped! [E,,C,E,]8!ped-up! |!ped! !/-![C,E,]2!ped-up! G,2!ped! !/-![C,E,]2!ped-up! G,2 | %75
!ped! !/-![C,E,]2!ped-up! G,2!ped! !/-![C,E,]2!ped-up! G,2 | %76
!ff!!ped! (FD)!ped-up!.C.B,!ped! (DB,)!ped-up!.G,.F, | %77
!ped! (B,G,)!ped-up!.F,.D,!ped! (F,D,)!ped-up!.B,,.G,, | %78
!ped! !>![F,,F,]2!ped-up!!mf! [G,B,]D!ped! !/-![G,B,]2!ped-up! D2 | %79
!ped! !/-![G,B,]2!ped-up! D2!ped! !/-![G,B,]2!ped-up! D2 | %80
!ff!!ped! (EC)!ped-up!.A,.G,!ped! (CG,)!ped-up!.F,.E, | %81
!ped! (G,E,)!ped-up!.C,.G,,!ped! (C,G,,)!ped-up!.E,,.C,, | %82
!f!!ped! F,,2!ped-up! [C,F,A,]4!ped!!ped-up! [C,F,A,]2 | %83
!ped! C,,2!ped-up! [C,E,G,]4!ped!!ped-up! [C,E,G,]2 | %84
!ped! F,,2!ped-up! [C,F,A,]4!ped!!ped-up! [C,F,A,]2 | %85
!ped! C,,2!ped-up! [C,E,G,]2!ped! F,,2!ped-up! [C,D,A,]2 | %86
!ped! G,,2!ped-up! [C,E,G,]2!ped! F,,2!ped-up! [B,,D,G,]2 | %87
!ped! E,,2!ped-up! [C,E,G,]2!ped! F,,2!ped-up! [C,D,A,]2 | %88
!ped! G,,2!ped-up! [C,E,G,]2!ped! =F,,2!ped-up! [B,,D,G,]2 | %89
!ped! E,,2!ped-up! [C,E,G,]2!ped! F,,2!ped-up! [C,D,A,]2 | %90
!ped! G,,2!ped-up! [C,E,G,]2!ped! F,,2!ped-up! [B,,D,G,]2 |!ped! E,G,C,G,!ped-up! A,,G,G,,G, | %92
!ped! G,,G,[C,E,]G,!ped-up! [C,E,]G,[C,E,]G, |!ped! F,G,D,G,!ped-up! A,,G,G,,G, | %94
!ped! G,,G,[D,F,]G,!ped-up! [D,F,]G,[D,F,]G, |!ped! E,G,C,G,!ped-up! A,,G,G,,G, | %96
!ped! G,,G,[C,E,]G,!ped-up! [C,E,]G,[C,E,]G, |!ped! F,G,D,G,!ped-up! A,,G,G,,G, | %98
!ped! G,,G,[D,F,]G,!ped-up! [D,F,]G,[D,F,]G, |!ped! G,6!ped-up! .[G,,G,]2 | %100
 .[E,,E,]2 .[C,,C,]2 .[A,,,A,,]2 .[G,,,G,,]2 | %101
!ped! [^F,,,^F,,]2 ^F,^A, F,A,!ped-up!!ped!F,A,!ped-up! |!ped! !/-!^F,2 ^A,2 !/-!F,2!ped-up! A,2 | %103
!ped! !/-![E,^A,]2 ^C2 !/-![E,A,]2!ped-up! C2 |!ped! !/-![E,G,^A,]2 ^C2 !/-![E,G,A,]2!ped-up! C2 | %105
!ped! !/-![^D,^F,]2 B,2!p! !/-![D,F,]2!ped-up! B,2 | %106
!ped! !/-![=D,^F,]2 B,2!p! !/-![=D,F,]2!ped-up! B,2 | %107
 !/-![^C,E,]2!ped! ^A,2!p! !/-![C,E,]2!ped-up! A,2 | %108
 !/-![=C,E,]2!ped! ^A,2!p! !/-![C,E,]2!ped-up! A,2 | %109
!ped! [B,,,B,,]4!ped-up!!f!!ped! !/-!=A,,,2 =A,,2!ped-up! | %110
!p!!ped! [G,,,G,,]4!ped-up!!f!!ped! !/-!^A,,,2 ^A,,2!ped-up! | %111
!p!!ped! [B,,,B,,]4!ped-up!!f!!ped! !/-!=A,,,2 =A,,2!ped-up! | %112
!p!!ped! [G,,,G,,]4!ped-up!!f!!ped! !/-!^A,,,2 ^A,,2!ped-up! | %113
!ped! [B,,,B,,]3 ^A,,!ped-up!!ped! B,,3 A,,!ped-up! | %114
!ped! B,,3 ^A,,!ped-up!!ped! B,,3 A,,!ped-up! | %115
!ped! B,,^A,,B,,A,,!ped-up!!ped! B,,A,,B,,A,,!ped-up! | %116
!ped! B,,^A,,B,,A,,!ped-up!!ped! B,,A,,B,,A,,!ped-up! | [B,,,B,,]8- | [B,,,B,,]8- | [B,,,B,,]8 | %120
 [B,,,B,,]4 ^C,2 ^D,2 | [E,^G,]8- | [E,G,]8 | [^C,E,^C]4 [C,E,C]4- | [C,E,C]4 [B,,E,B,]4 | %125
"^cresc." (3z2 (^C,2 E,2) (3.=G,2 .C,2 .E,2 | (3z2 (=C,2 E,2) (3.G,2 .C,2!mf! .E,2 | %127
 (3.A,,2 (C,2 F,2) (3.F,,2 .C,2 .F,2 | (3.D,,2 (D,2 F,2) (3._B,,,2 .D,2 .G,2 | %129
 (3.C,,2 (C,2 F,2) (3.A,2 .C2 .C2 | (3.C2 .G,2 .C2 (3.C,2 .G,2 .C2 | %131
 (3._B,,2 (D,2 G,2) (3.G,,2 .C,2 .G,2 | (3._E,,2 (_E,2 G,2) (3.C,,2 .E,2 .A,2 | %133
 (3.D,,2 (D,2 G,2) (3._B,2 .D2 .D2 | (3.D2 .A,2 .D2 (3.D,2 .A,2 .D2 | %135
 (3.=E,,2 (=E,2 A,2) (3.C2 .E2 .E2 | (3.E2 .B,2 .E2 (3.E,2 .B,2 .E2 | %137
!ped! !/-![E,^C]2 E2 !/-![E,C]2 E2 | [E,^C]2!ped-up! z2 z4 |!ped! !/-![^D,B,]2 ^D2 !/-![D,B,]2 D2 | %140
 [^D,B,]2!ped-up! z2 z4 |"^sempre"!ped! !/-!A,,2 A,2!pp! !/-!A,,2 A,2 | !/-!A,,2 A,2 !/-!A,,2 A,2 | %143
 [^G,,^G,]2!ped-up! z2 z2 [G,B,]2 | [^F,A,]2 z2 z2 [F,A,]2 | [E,^G,]2 z2 z2 [E,G,]2 | %146
 [A,,^F,]2 z2 z2 [A,,F,]2 | .^G,,2 .[^G,B,]2 .^F,,2 .[A,B,]2 | .E,,2 .[^G,B,]2 .=D,2 .[G,E]2 | %149
 .^C,2 .[A,E]2 .B,,2 .[B,E]2 | .A,,2 .[^CE]2 .^G,2 .[B,^E]2 | .^F,2 .[B,^F]2 .=E,2 .[B,E]2 | %152
 .^D,2 .[B,^F]2 .^C,2 .[B,F]2 | .[B,,B,]2 .[^F,,^F,]2 .[A,,A,]2 .[B,,B,]2 | ([^C,^C]6 [B,,B,]2) | %155
 ([A,,A,]2 ^F,2) .[^C,,^C,]2 .[B,,,B,,]2 | .[B,,,B,,]2 .[^F,A,]2 [F,A,]4 | %157
 .[B,,,B,,]2 .[E,,E,]2 .[^G,,^G,]2 .[B,,B,]2 | ([^C,^C]6!ped! [B,,B,]2) | %159
 ([^G,,^G,]2 E,2)!ped-up! .[^C,,^C,]2 .[B,,,B,,]2 | [B,,,B,,]2 .[^G,B,]2 [G,B,]4 | %161
 ([^C,^C]2"^cresc." A,2) .C,2 .B,,2 |!ped! ([^D,^D]2 B,2)!ped-up! .^C,2 .B,,2 | %163
!ped! ([E,E]2 ^C2)!ped-up! .^C,2 .B,,2 |!ped! ([^F,^F]2 [^D,^D]2)!ped-up! .[^C,,^C,]2 .[B,,,B,,]2 | %165
!ff!!ped! ([^F,^F]2 [^D,^D]2)!ped-up! .[B,,B,]2 .[^F,,^F,]2 | %166
!ped! ((([^D,,^D,]2 [B,,,B,,]2)))!ped-up! .[A,,A,]2 .[^F,,^F,]2 | %167
 [E,,E,]2!ped! ^G,,,2- [G,,,^G,,]!ped-up! z!ped! ^C,,2- | %168
 [C,,^C,]!ped-up! z!ped! E,,2- [E,,E,]!ped-up! z!ped! A,,2- | %169
!f! [A,,A,]!ped-up! z!ped! ^C,2- [C,^C]!ped-up! z!ped! ^F,2- | %170
 [F,^F]!ped-up! z!ped! =E,2- [E,E]!ped-up! z!ped! ^D,2- | [D,^D]!ped-up! z z2 z2!ped! E,2- | %172
 [E,E]!ped-up! z z2 z2!ped! A,,2- | [A,,A,]!ped-up! z z2 z2!ped! B,,2- | %174
!p! [B,,B,]!ped-up! z z2"^dolce"!p! z4 |!ped! !/-!E,,2 E,2 !/-!E,,2 E,2!ped-up! | %176
!ped! !/-!E,,2 E,2 !/-!E,,2 E,2!ped-up! |!ped! !/-!E,,2 E,2 !/-!E,,2 E,2!ped-up! | %178
!ped! !/-!E,,2 E,2 !/-!E,,2 E,2!ped-up! | [E,,E,]2 z2 z4 | z8 | z8 | z8 | E,8- | E,8- | E,8- | %186
 E,8 | [E,=G,]8- | [E,G,]8- | [E,G,]8- | [E,G,]8 |!ff!!ped! [_B,,,_B,,]8!ped-up! | %192
 z2!ff! G,,A,, _B,,C,B,,A,, | G,,_B,,C,D, E,F,G,A, | _B,2!ff! A,G, F,E,D,C, | %195
!pp! ._B,,2 .[E,G,_B,]2 .[E,G,B,]2 .B,,2 | ._B,,2 .[E,G,_B,]2 .[E,G,B,]2 .B,,2 | %197
 ._B,,2 .[E,G,_B,]2 .[E,G,B,]2 .B,,2 | ._B,,2 .[E,G,_B,]2 .[E,G,B,]2 .B,,2 | %199
!ff!!ped! [_B,,,_B,,]8!ped-up! | z2!ff! G,,A,, _B,,C,B,,A,, | G,,_B,,C,D, E,F,G,A, | %202
 ._B,2!ff! A,G, F,E,D,C, |!pp! ._B,,2 .[E,G,_B,]2 .[E,G,B,]2 .B,,2 | %204
 ._B,,2 .[E,G,_B,]2 .[E,G,B,]2 .B,,2 | ._B,,2 .[E,G,_B,]2 .[E,G,B,]2 .B,,2 | %206
 ._B,,2 .[E,G,_B,]2 .[E,G,B,]2 .B,,2 | .A,,2 .[E,G,^C]2 .[E,G,C]2 .A,,2 | %208
 .A,,2 .[E,G,^C]2 .[E,G,C]2 .A,,2 | .A,,2 .[E,G,^C]2 .[E,G,C]2 .A,,2 | %210
 .A,,2 .[E,G,^C]2 .[E,G,C]2 .A,,2 |!ff!!ped! [G,,,G,,]8!ped-up! | z2 E,,^F,, G,,A,,G,,F,, | %213
 E,,G,,A,,B,, ^C,D,E,^F, | .G,2 ^F,E, D,^C,B,,A,, |!pp! .G,,2 .[^C,E,A,]2 .[C,E,A,]2 .G,,2 | %216
 .G,,2 .[^C,E,A,]2 .[C,E,A,]2 .G,,2 | .G,,2 .[^C,E,A,]2 .[C,E,A,]2 .G,,2 | %218
 .G,,2 .[^C,E,A,]2 .[C,E,A,]2 .G,,2 |!ff!!ped! [G,,,G,,]8!ped-up! | z2 E,,^F,, G,,A,,G,,F,, | %221
 E,,G,,A,,B,, ^C,D,E,^F, | .G,2 ^F,E, D,^C,B,,A,, |!pp! .G,,2 .[^C,E,^A,]2 .[C,E,A,]2 .G,,2 | %224
 .G,,2 .[^C,E,^A,]2 .[C,E,A,]2 .G,,2 | .G,,2 .[^C,E,^A,]2 .[C,E,A,]2 .G,,2 | %226
 .G,,2 .[^C,E,^A,]2 .[C,E,A,]2 .G,,2 | .^F,,2 .[^C,E,^A,]2 .[C,E,A,]2 .F,,2 | %228
 .^F,,2 .[^C,E,^A,]2 .[C,E,A,]2 .F,,2 | .^F,,2 .[^C,E,^A,]2 .[C,E,A,]2 .F,,2 | %230
 .^F,,2 .[^C,E,^A,]2 .[C,E,A,]2 .F,,2 | ^F,,^F,B,,F, D,F,B,,F, | ^A,,^F,B,,F, ^C,F,D,F, | %233
"^cresc."!ped! ^F,,G,^C,G, E,G,E,G,!ped-up! |!ped! ^F,,G,E,G, D,^F,^C,!ff!E,!ped-up! | %235
!ff!!ped! [B,,,B,,]8!ped-up! | z2 B,,^C, D,E,D,C, | .B,,2 B,,^C, D,E,D,C, | .B,,2 B,,^C, D,E,D,C, | %239
!pp! .B,,2 .[G,B,]2 .[G,B,]2 .B,,2 | .B,,2 .[G,B,]2 .[G,B,]2 .B,,2 | %241
 .B,,2 .[G,B,]2 .[G,B,]2 .B,,2 | .B,,2 .[G,B,]2 .[G,B,]2 .B,,2 | .G,,2 .[F,B,]2 .[F,B,]2 .G,,2 | %244
 .G,,2 .[F,B,]2 .[F,B,]2 .G,,2 | .G,,2 .[F,B,]2 .[F,B,]2 .G,,2 | .G,,2 .[F,B,]2 .[F,B,]2 .G,,2 | %247
!ped! G,,G,C,G,!ped-up!!ped! _E,G,E,G,!ped-up! |!ped! B,,G,C,G,!ped-up!!ped! D,G,_E,G,!ped-up! | %249
!ped! G,,_A,D,A,!ped-up!!ped! F,A,F,A,!ped-up! |!ped! G,,_A,F,A,!ped-up!!ped! _E,G,D,F,!ped-up! | %251
!mf!!ped! C,,C,_E,,C, E,,C,G,,C,!ped-up! | _A,,C,!ped!G,,C, G,,C,!ped-up!_E,,C, | %253
 C,,C,!ped!_E,,C, E,,C,!ped-up!_A,,C, | _B,,C,!ped!_A,,C, A,,C,!ped-up!_E,,C, | %255
 _D,,_D,!ped!F,,D, F,,D,!ped-up!_A,,D, | _B,,_D,!ped!_A,,D, A,,D,!ped-up!F,,D, | %257
 =D,,=D,!ped!F,,D, F,,D,!ped-up!_B,,D, | C,D,!ped!_B,,D, B,,D,!ped-up!F,,D, | %259
!f! .[_E,,_E,]2!ped! [G,,G,]4!ped-up!!f! .[_B,,_B,]2 | %260
 .[=E,,=E,]2!ped! [G,,G,]4!ped-up!!f! .[C,C]2 | .[F,,F,]2!ped! [_A,,_A,]4!ped-up!!f! .[C,C]2 | %262
 .[^F,,^F,]2!ped! [C,C]4!f! [_E,_E]2!ped-up! |!ff!!ped! [G,,G,]4- [G,,G,]G,,G,G,,!ped-up! | %264
!ped! [_A,,_A,]4- [A,,A,]A,,A,A,,!ped-up! |!ped! [^F,,^F,]4- [F,,F,]F,,F,F,,!ped-up! | %266
!ped! [G,,G,]4- [G,,G,]G,,G,G,,!ped-up! | z C,D,_E, F,G,=A,=B, | C_E,F,G, A,B,CD | %269
 _EC,D,_E, F,G,A,B, | .[C,C]2 .[D,D]2 .[_E,_E]2 .[=A,,,=A,,]2 | [_B,,,_B,,]8- | [B,,,B,,]8- | %273
 [B,,,B,,]8- | [B,,,B,,]8- | [B,,,B,,]8- | !fermata![B,,,B,,]8 | %277
!pp!"_con Ped." [_B,,,_B,,]2!ped! [F,_B,D][F,B,D] [F,B,D]2 [F,B,D]2!ped-up! | %278
 [F,_B,]2!ped! [_B,,,_B,,][B,,,B,,] [B,,,B,,]2 [B,,,B,,]2!ped-up! | %279
 [_B,,,_B,,]2!ped! [F,_B,D][F,B,D] [F,B,D]2 [F,B,D]2!ped-up! | %280
 [F,_B,D]2!ped! [_B,,,_B,,][B,,,B,,] [B,,,B,,]2 [B,,,B,,]2!ped-up! | %281
 [A,,,A,,]2!ped! [F,C_E][F,CE] [F,CE]2 [F,CE]2!ped-up! | %282
 [F,C_E]2!ped! [A,,,A,,][A,,,A,,] [A,,,A,,]2 [A,,,A,,]2!ped-up! | %283
 [A,,,A,,]2!ped! [F,C_E][F,CE] [F,CE]2 [F,CE]2!ped-up! | %284
 [F,C_E]2!ped! [A,,,A,,][A,,,A,,] [A,,,A,,]2 [A,,,A,,]2!ped-up! | %285
 [_B,,,_B,,]2!ped! [F,_B,D][F,B,D] [F,B,D]2 [F,B,D]2!ped-up! | %286
 [F,_B,D]2!ped! [_B,,,_B,,][B,,,B,,] [B,,,B,,]2 [B,,,B,,]2!ped-up! | %287
 [_E,,_E,]2!ped! [G,_B,_E][G,B,E] [G,B,E]2 [G,B,E]2!ped-up! | %288
 [G,_B,_E]2!ped! [_E,,_E,][E,,E,] [E,,E,]2 [E,,E,]2!ped-up! | %289
"_cresc." [F,,F,]2!ped! [F,_B,D][F,B,D] [F,B,D]2 [F,,F,]2!ped-up! | %290
 [F,,F,]2!ped! [F,_B,D][F,B,D] [F,B,D]2 [F,,F,]2!ped-up! | %291
 [F,,F,]2!ped! [F,A,_E][F,A,E] [F,A,E]2 [F,,F,]2!ped-up! | %292
 [F,,F,]2!ped! [F,A,_E][F,A,E] [F,A,E]2 [F,,F,]2!ped-up! |!f! [_B,,,_B,,]8- | [B,,,B,,]8- | %295
 [B,,,B,,]8- | [B,,,B,,]8- | [B,,,B,,]8- | !fermata![B,,,B,,]8 | %299
!pp! [_G,,,_G,,]2!ped! [_D,_G,_B,][D,G,B,] [D,G,B,]2 [D,G,B,]2!ped-up! | %300
 [_D,_G,]2!ped! [_G,,,_G,,][G,,,G,,] [G,,,G,,]2 [G,,,G,,]2!ped-up! | %301
 [_G,,,_G,,]2!ped! [_D,_G,_B,][D,G,B,] [D,G,B,]2 [D,G,B,]2!ped-up! | %302
 [_D,_G,_B,]2!ped! [_G,,,_G,,][G,,,G,,] [G,,,G,,]2 [G,,,G,,]2!ped-up! | %303
!p! [F,,,F,,]2!pp!!ped! [_D,_A,_C][D,A,C] [D,A,C]2 [D,A,C]2!ped-up! | %304
 [_D,_A,_C]2!p!!ped! [F,,,F,,][F,,,F,,] [F,,,F,,]2 [F,,,F,,]2!ped-up! | %305
 [F,,,F,,]2!pp!!ped! [_D,_A,_C][D,A,C] [D,A,C]2 [D,A,C]2!ped-up! | %306
 [_D,_A,_C]2!p!!ped! [F,,,F,,][F,,,F,,] [F,,,F,,]2 [F,,,F,,]2!ped-up! | %307
 [_G,,,_G,,]2!ped! [_D,_G,_B,][D,G,B,] [D,G,B,]2 [D,G,B,]2!ped-up! | %308
 [_D,_G,_B,]2!ped! [_G,,,_G,,][G,,,G,,] [G,,,G,,]2 [G,,,G,,]2!ped-up! | %309
 [_C,,_C,]2!ped! [_G,_C_E][G,CE] [G,CE]2 [G,CE]2!ped-up! | %310
 [_G,_C_E]2!ped! [_C,,_C,][C,,C,] [C,,C,]2 [C,,C,]2!ped-up! | %311
 [_D,,_D,]2"_cresc."!ped! [D,_G,_B,][D,G,B,] [D,G,B,]2 [D,,D,]2!ped-up! | %312
 [_D,,_D,]2!ped! [D,_G,_B,][D,G,B,] [D,G,B,]2 [D,,D,]2!ped-up! | %313
 [_D,,_D,]2!ped! [D,F,_A,][D,F,A,] [D,F,A,]2 [D,,D,]2!ped-up! | %314
 [_D,,_D,]2!ped! [D,F,_A,][D,F,A,] [D,F,A,]2 [D,,D,]2!ped-up! | %315
!pp! .[^C,,^C,]2 .[^F,=A,]2 .[F,A,]2 .[C,,C,]2 | .[^C,,^C,]2 .[^F,A,]2 .[F,A,]2 .[C,,C,]2 | %317
 .[D,,D,]2 .[^F,A,]2 .[F,A,]2 .[D,,D,]2 |!pp! .[D,,D,]2 .[^F,A,]2"_dim." .[F,A,]2 .[D,,D,]2 | %319
 .[D,,D,]2 .[^F,A,]2 .[F,A,]2 .[D,,D,]2 | .[D,,D,]2 .[^F,A,]2 .[F,A,]2 .[D,,D,]2 | %321
!ppp! .[D,,D,]2 .[A,C]2 .[A,C]2 .[D,,D,]2 | .[D,,D,]2 .[A,C]2 .[A,C]2 .[D,,D,]2 | %323
 .[D,,D,]2 .[A,C]2 .[A,C]2 .[D,,D,]2 | .[D,,D,]2 .[A,C]2 .[A,C]2 .[D,,D,]2 | %325
 .[D,,D,]2 .[^F,A,C]2"_cresc." .D,2 .[F,A,C]2 | .D,2 .[^F,A,C]2 .D,2 .[F,A,C]2 | %327
 .D,2 .[^F,A,C]2 .D,2 .[F,A,C]2 | .D,2 .[^F,A,C]2 .D,2 .[F,A,C]2 | %329
!f! !arpeggio![G,,B,]2!pp!!ped! [G,B,]D [G,B,]D[G,B,]D!ped-up! | %330
!ped! [G,B,]D[G,B,]D [G,B,]D!ped-up!!ped![G,B,]D | [G,B,]D[G,B,]D!ped-up! [G,B,]D[G,B,]D | %332
!ped! [G,B,]D[G,B,]D [G,B,]D[G,B,]D!ped-up! |!ped! [G,B,]D[G,B,]D!ped-up! [G,B,]D[G,B,]D | %334
!ped! [G,B,]D[G,B,]D [G,B,]D[G,B,]D!ped-up! | %335
!ped! !/-![G,B,]2!ped-up! D2!ped! !/-![G,B,]2!ped-up! D2 | %336
!ped! !/-![G,B,]2 D2!ped-up!!ped! !/-![G,B,]2!ped-up! D2 | %337
!ped! [D,,D,]2!ped-up! z2 z!p! .D,,.E,,.^F,, | .G,,.A,,.B,,.C, .D,.E,.^F,.G, | %339
!ped!!pp! !/-![D,^F,A,]2!ped-up! D2!ped! !/-![D,F,A,]2!ped-up! D2 | %340
!ped! !/-![D,^F,A,]2!ped-up! D2!ped! !/-![D,F,A,]2!ped-up! D2 | %341
!ped! !/-![G,B,]2 D2!ped-up!!ped! !/-![G,B,]2 D2!ped-up! | %342
!ped! !/-![C,G,]2!ped-up! C2!ped! [C,G,]C!ped-up![E,G,]C | %343
!ped! !/-![G,B,]2!ped-up! D2 !/-![G,B,]2!ped! D2!ped-up! | %344
!ped! !/-![C,G,]2!ped-up! C2!ped! [C,G,]C!ped-up![E,G,]C | %345
[K:treble]!ped! !/-![G,B,]2 D2!ped-up!!ped! !/-![CE]2 A2!ped-up! | %346
!ped! !/-![DG]2 B2!ped-up!!ped! !/-![CD]2 A2!ped-up! | %347
!ped! !/-![B,D]2 G2!ped-up!!ped! !/-![CE]2 A2!ped-up! | %348
!ped! !/-![DG]2 B2!ped-up!!ped! !/-![CD]2 A2!ped-up! | !/-![B,D]2 G2 !/-![CE]2 A2 | %350
 !/-![DG]2 B2 [D^F]A [DF]2 |[K:bass]!p! D,8- | D,8 | F,,2 B,,4 D,2 | B,,2 D,4 F,2 | F,8- | F,8 | %357
 D,8- | D,8 | D,,2 .[D,,D,]2 [D,,D,]4- | [D,,D,]2 .[^D,,^D,]2 [D,,D,]4- | %361
 [D,,D,]2 .[E,,E,]2 [E,,E,]4- | [E,,E,]2 .[F,,F,]2 [F,,F,]4- | [F,,F,]2 [^F,,^F,]4 [G,,G,]2- | %364
 [G,,G,]2 [^G,,^G,]4 [A,,A,]2- | [A,,A,]2 [_B,,_B,]4 [=B,,=B,]2- | [B,,B,]2 [C,C]4 [^C,^C]2- | %367
 [C,C]2 [D,D]4 [^D,^D]2- | [D,D]2 [E,E]4 [F,F]2- | [F,F]2 [^F,^F]4 [G,G]2- | %370
!ped! [G,G]2 [=F,=F]4!ped-up!!ped! [D,D]2-!ped-up! | %371
!ped! [D,D]2 [B,,B,]4!ped-up!!ped! [G,,G,]2-!ped-up! | %372
!ped! [G,,G,]2 [F,,F,]4!ped-up!!ped! [D,,D,]2-!ped-up! | %373
!ped! [D,,D,]2 [B,,,B,,]4!ped-up!!ped! [A,,,A,,]2-!ped-up! | %374
!ped! [A,,,A,,]2 [G,,,G,,]4!ped-up!!ped! [^F,,,^F,,]2-!ped-up! | %375
!ped! [F,,,F,,]2 [G,,,G,,]4!ped-up! [=F,,G,,=F,]2 | [F,,G,,F,]2 [E,,G,,E,]4 [D,,G,,D,]2 | %377
 [C,,E,,G,,C,]2 [E,E]4 [G,G]2 |!ped! [A,CA]6!ped-up! [G,G]2 | %379
!ped! [E,E]2 [C,C]2!ped-up! .[A,,A,]2 .[G,,G,]2 |!ped! [G,,G,]8!ped-up! | %381
!ped! [C,C]2 [G,,G,]2!ped-up! .[F,,F,]2 .[E,,E,]2 |!ped! [E,,C,E,]8!ped-up! | %383
!ped!!mf! !/-![C,E,]2!ped-up! G,2!ped! !/-![C,E,]2!ped-up! G,2 | %384
!ped! !/-![C,E,]2!ped-up! G,2!ped! !/-![C,E,]2!ped-up! G,2 | %385
!ff!!ped! (F,D,)!ped-up!.B,,.G,,!ped! (D,B,,)!ped-up!.G,,.F,, | %386
!ped! (B,,G,,)!ped-up!.F,,.D,,!ped! (F,,D,,)!ped-up!.B,,,.C,, | %387
!ped! [G,,,G,,]2!ped-up!!mf! [G,B,]D!ped! !/-![G,B,]2!ped-up! D2 | %388
!ped! !/-![G,B,]2!ped-up! D2!ped! !/-![G,B,]2!ped-up! D2 | %389
!ff!!ped! (_B,G,)!ped-up!.E,._B,,!ped! (G,E,)!ped-up!.C,.B,, | %390
!ped! (E,C,)!ped-up!._B,,.G,,!ped! (B,,G,,)!ped-up!.E,,._B,,, | %391
!ped! [A,,,A,,]6!ped-up! [A,,,A,,]2 |!ff!!ped! [A,,,A,,]6!ped-up! [A,,,A,,]2 | %393
!ff!!ped! [G,,,G,,]6!ped-up! [B,,,B,,]2 |!ff!!ped! [C,,C,]6!ped-up! [^F,,,^F,,]2 | %395
!ff!!ped! [G,,,G,,]6!ped-up! [B,,,B,,]2 |!f!!ped! [C,,C,]6!ped-up! !>![^F,,,^F,,]2 | %397
!f!!ped! [G,,,G,,]6!ped-up! !>![^F,,,^F,,]2 |!f!!ped! [G,,,G,,]6!ped-up! !>![^F,,,^F,,]2 | %399
!ped! [G,,,G,,]^F,,G,,F,, !/-!G,,2 F,,2!ped-up! |!ped! !/-!G,,2 ^F,,2 !/-!G,,2 F,,2!ped-up! | %401
 [G,,,G,,]8- | [G,,,G,,]8- | [G,,,G,,]8- | [G,,,G,,]4 A,,2 B,,2 | [C,E,]8- | [C,E,]8 | %407
 [A,,C,A,]4 [A,,C,A,]4- | [A,,C,A,]4 [G,,C,G,]4 | (3z2 (A,2 C2) (3._E2 .A,2 .C2 | %410
 (3z2 (_A,2 C2) (3._E2 .A,2 .C2 | (3.F,2 (_A,2 _D2) (3._D,2 .A,2 .D2 | %412
 (3._B,,2 (_D,2 _G,2) (3._G,,2 ._E,2 .G,2 | (3z2 (F,2 _A,2) (3.A,2 .A,2 .A,2 | %414
 (3._A,2 ._E,2 .A,2 (3._A,,2 .A,2 .A,2 | (3._G,2 (_B,2 _E2) (3._E,2 .B,2 .E2 | %416
 (3._C,2 (F,2 _A,2) (3._A,,2 .F,2 .A,2 | (3z2 (_G,2 _B,2) (3.B,2 .B,2 .B,2 | %418
 (3._B,2 .F,2 .B,2 (3._B,,2 .F,2 .B,2 | (3z2 (_A,2 C2) (3.C2 .C2 .C2 | %420
 (3.C2 .G,2 .C2 (3.C,2 .C2 .C2 |!ped! !/-![C,=A,]2 C2 !/-![C,A,]2 C2!ped-up! | [C,A,]2 z2 z4 | %423
!ped! !/-![=B,,G,]2 B,2 !/-![B,,G,]2 B,2!ped-up! | [B,,G,]2 z2 z4 | %425
!pp!!ped! !/-!F,,2 F,2 !/-!F,,2 F,2 | !/-!F,,2 F,2 !/-!F,,2 F,2!ped-up! | [E,,E,]2 z2 z2 [E,,E,]2 | %428
 [D,,D,]2 z2 z2 [D,,D,]2 | [C,,C,]2 z2 z2 [C,,C,]2 | [F,,F,]2 z2 z2 [F,,F,]2 | %431
 [E,,E,]2 z2 .D,2 .[B,F]2 | .C,2 .[CE]2 ._B,,2 .[_B,CE]2 | .A,,2 .[A,CF]2 .G,,2 .[G,_B,C]2 | %434
 .F,,2 .[F,A,C]2 .E,2 .[A,E]2 | .D,2 .[A,F]2 .C,2 .[A,F]2 | .=B,,2 .[F,D]2 .A,,2 .[F,D]2 | %437
 .[G,,G,]2 .[D,,D,]2 .[F,,F,]2 .[G,,G,]2 | ([A,,A,]6 [G,,G,]2) | %439
 ([F,,F,]2 D,2) .[A,,,A,,]2 .[G,,,G,,]2 | .[G,,,G,,]2 .[D,F,]2 [D,F,]4 | %441
 .[G,,,G,,]2 .[C,,C,]2 .[E,,E,]2 .[G,,G,]2 | ([A,,A,]6 [G,,G,]2) | %443
 ([E,,E,]2 E,2) .[A,,,A,,]2 .[G,,,G,,]2 | .[G,,,G,,]2 .[E,G,]2 [E,G,]4 | %445
 ([A,,A,]2 F,2) .A,,2 .G,,2 | ([B,,B,]2 G,2) .A,,2 .G,,2 | ([C,C]2 A,2) .A,,2 .G,,2 | %448
 ([D,D]2 B,2) .A,,2 .G,,2 |!ped! ([D,D]2 B,2)!ped-up! .F,2 .D,2 | %450
!ped! (B,,2 G,,2)!ped-up! .[F,,F,]2 .[D,,D,]2 | %451
 [C,,C,]2!ped! E,,2-!ff! [E,,E,]!ped-up! z!ped! A,,,2- | %452
!ff! [A,,,A,,]!ped-up! z!ped! C,,2-!ff! [C,,C,]!ped-up! z!ped! F,,2- | %453
!ff! [F,,F,]!ped-up! z!ped! A,,2-!ff! [A,,A,]!ped-up! z!ped! D,2- | %454
!ff! [D,D]!ped-up! z!ped! C,2-!ff! [C,C]!ped-up! z!ped! B,,2- | %455
!ff! [B,,B,]!ped-up! z z2 z2!ped! C,2- |!ff! [C,C]!ped-up! z z2 z2!ped! F,,2- | %457
!ff! [F,,F,]!ped-up! z z2 z2!ped! G,,2- |!ff! [G,,G,]!ped-up! z z2 z4 | !arpeggio!.[G,,B,]2 z2 z4 | %460
[K:treble] D2 C2 B,2 A,2 | G,2 A,2 B,2 C2 | D2 E2 F2 ^F2 | G4 ^G4 | A8- | A8 |[K:bass] z4 G,4- | %467
 [C,-G,]8 | z2 G,2 A,2 B,2 | C8 | B,8 | A,4 C4 | [C,A,C]4 [C,G,C]4 | [C,^F,A,]8 | [B,,F,_A,]8- | %475
 [B,,-F,-A,]8 | [B,,F,G,]8 | [_B,,^C,G,]8 | [A,,D,F,]8 | [_A,,D,-F,-]8 | %480
 [G,,D,F,]2 .G,,.G,, .G,,2 .G,,2 | G,,8- | G,,4- G,,3 G,, | [E,,G,,E,]8- | %484
 [E,,G,,E,]2 .G,,.G,, .G,,2 .G,,2 | G,,8- | G,,4- G,,3 G,, | [B,,,G,,B,,]8- | %488
 [B,,,G,,B,,]2 .G,,.G,, .G,,2 .G,,2 | G,,8- | G,,2 .G,,.G,, .G,,2 .G,,2 | G,,8- | %492
 G,,2 .G,,.G,, .G,,2 .G,,2 | G,,8- | G,,2 .G,,.G,, .G,,2 .G,,2- | [G,,,G,,]2 .G,,.G,, G,,4- | %496
 [G,,,G,,]2 .G,,.G,, G,,4- | [G,,,G,,]2 z2 z4 | z8 | z8 |"^sempre" z8 | z8 | z8 | z8 | %504
 z2 .[F,,F,]2 .[D,,D,]2 .[C,,C,]2 | .[B,,,B,,]2 z2 z4 | z2 .[D,,D,]2 .[E,,E,]2 .[F,,F,]2 | %507
 .[B,,,B,,]2 z2 z4 | z2 .[F,,F,]2 .[G,,G,]2 .[_A,,_A,]2 | .[B,,,B,,]2 z2 z4 | z8 | z8 | z8 || z8 | %514
 z8 | z8 | z8 | z8 | z8 | z8 | z8 |[K:treble] z GAB cdef | GABc defG | ABcd efGA | %524
 Bcde f[K:bass] G,A,B, | CCDE FG,A,B, | CCDE FG,A,B, | CCDE FG,A,B, | CCDE FG,,A,,B,, | %529
 C,C,D,E, F,G,,A,,B,, | C,C,D,E, F,G,,A,,B,, | C,C,D,E, F,G,,A,,B,, | C,D,E,F, G,F,E,D, | %533
!ped! [C,,C,]2 [C,E,]C !/-![C,E,]2 C2!ped-up! |!ped! !/-![C,E,]2 C2 !/-![C,E,]2!ped-up! C2 | %535
!ped! !/-![C,E,]2 C2!ped-up! !/-![C,E,]2 C2 | !/-![A,,C,]2 C2 [C,E,]2 E,,E, | %537
 F,,F,E,,E, F,,F,E,,E, | F,,F,!ped!E,,E, E,,E,!ped-up!G,,G, | A,,A,G,,G, A,,A,G,,G, | %540
 A,,A,!ped!G,,G, G,,G,!ped-up!E,,E, |!ped! [F,,C,]!ff!F,E,,E,!ped-up! !/-!E,,2 E,2 | %542
!ped! [F,,C,]!ff!F,E,,E,!ped-up! !/-!E,,2 E,2 |!ped! [A,,C,]!ff!A,G,,G,!ped-up! !/-!G,,2 G,2 | %544
!ped! [A,,C,]!ff!A,G,,G,!ped-up! !/-!G,,2 G,2 |!ped! [A,,C,A,]2 [A,,C,A,]4!ped-up!!ff! [G,,C,G,]2 | %546
 [^F,,C,^F,]2 [G,,C,G,]4!ff! [=F,,C,=F,]2 | [E,,C,E,]2 [F,,C,F,]4!ff! [E,,C,E,]2 | %548
 [^D,,C,^D,]2 [E,,C,E,]4!ff! [=D,,=D,]2 |!ped! C,,C,A,,!ff!C,!ped-up!!ped! F,,C,G,,C,!ped-up! | %550
!ped! E,,C,A,,!ff!C,!ped-up!!ped! D,,C,E,,C,!ped-up! | %551
!ped! C,,C,A,,!ff!C,!ped-up!!ped! F,,C,G,,C,!ped-up! | %552
!ped! E,,C,F,,!ff!C,!ped-up!!ped! D,,C,E,,C,!ped-up! |!ped! C,,G,,A,,B,, C,G,,!ped-up!A,,B,, | %554
 C,G,,A,,B,, C,G,,A,,B,, | C,G,,A,,B,, C,G,,A,,B,, | C,!ped!G,,A,,B,, C,G,,B,,C,!ped-up! | %557
!ped! D,G,,B,,C, D,G,,!ped-up!B,,C, | D,G,,B,,C, D,G,,B,,C, | D,G,,B,,C, D,G,,B,,C, | %560
 D,!ped!G,,B,,C, D,G,,B,,D,!ped-up! |!ped! C,G,,A,,B,,!ped-up! C,G,,A,,B,, | %562
!ped! C,G,,A,,B,,!ped-up! C,G,,A,,B,, |!ped! C,G,,A,,B,,!ped-up! C,G,,A,,B,, | %564
!ped! C,G,,A,,B,,!ped-up! C,G,,B,,C, |!ped! D,G,,B,,C,!ped-up! D,G,,B,,C, | %566
!ped! D,G,,B,,C,!ped-up! D,G,,B,,C, |!ped! D,G,,B,,C,!ped-up! D,G,,B,,C, | %568
!ped! D,G,,B,,C,!ped-up! D,G,,B,,D, | [C,,=C,] z [E,,E,]2- [E,,E,] z [=A,,=A,]2- | %570
 [A,,A,] z [C,C]2- [C,C] z [F,F]2- | [F,F] z [A,,A,]2- [A,,A,] z [D,D]2- | %572
 [D,D] z [C,C]2- [C,C] z [B,,B,]2- | [B,,B,] z [A,,A,]2- [A,,A,] z [G,,G,]2- | %574
 [G,,G,] z [F,,F,]2- [F,,F,] z [E,,E,]2- | [E,,E,] z [F,,F,]2- [F,,F,] z [G,,G,]2- | %576
 [G,,G,] z [G,,,G,,]2- [G,,,G,,] z [C,,C,]2- | [C,,C,] z [E,,E,]2- [E,,E,] z [=A,,=A,]2- | %578
 [A,,A,] z [C,C]2- [C,C] z [F,F]2- | [F,F] z [A,,A,]2- [A,,A,] z [D,D]2- | %580
 [D,D] z [C,C]2- [C,C] z [B,,B,]2- | [B,,B,] z [A,,A,]2- [A,,A,] z [G,,G,]2- | %582
 [G,,G,] z [F,,F,]2- [F,,F,] z [E,,E,]2- | [E,,E,] z [F,,F,]2- [F,,F,] z [G,,G,]2- | %584
 [G,,G,] z [G,,,G,,]2- [G,,,G,,] z [C,,C,]2- | [C,,C,] z [A,,,A,,]2- [A,,,A,,] z [D,,D,]2- | %586
 [D,,D,] z [G,,,G,,]2- [G,,,G,,] z [C,,C,]2- | [C,,C,] z [A,,,A,,]2- [A,,,A,,] z [D,,D,]2- | %588
 [D,,D,] z [G,,,G,,]2- [G,,,G,,] z [G,,,G,,]2 |!ped! G,,2 G,,2 G,,2 G,,2 | G,,8!ped-up! | %591
!ped! G,,2 G,,2 G,,2 G,,2 | G,,8!ped-up! |!ped! [G,,,G,,]4 [G,,,G,,]4-!ped-up! | %594
!ped! [G,,,G,,]4 [G,,,G,,]4-!ped-up! |!ped! [G,,,G,,]4 [G,,,G,,]4-!ped-up! | %596
!ped! [G,,,G,,]4 [G,,,G,,]4-!ped-up! |!ped! [G,,,G,,]4 [G,,,G,,]4-!ped-up! | %598
!ped! [G,,,G,,]4 [G,,,G,,]4-!ped-up! |!ped! [G,,,G,,]4 [G,,,G,,]4-!ped-up! | %600
!ped! [G,,,G,,]4 [G,,,G,,]4-!ped-up! |!ped! [G,,,G,,]2 [G,,,G,,]4 [G,,,G,,]2-!ped-up! | %602
!ped! [G,,,G,,]2 [C,,C,]4 [C,,C,]2-!ped-up! |!ped! [C,,C,]2 [C,,C,]4 [C,,C,]2-!ped-up! | %604
!ped! [C,,C,]2 [C,,C,]4 [C,,C,]2!ped-up! |!ped! [^F,,C,^F,]6 [F,,C,F,]2!ped-up! | %606
!ped! [=F,,C,=F,]6 [F,,C,F,]2!ped-up! |!ped! [E,,C,E,]6 [E,,C,E,]2!ped-up! | %608
!ped! [D,,C,D,]6 [D,,C,D,]2!ped-up! |!ped! [G,,,G,,]2 G,,2 B,,2 D,2!ped-up! | %610
!ped! F,2 G,2 B,2 D2!ped-up! |!ped! F2 D2 B,2 G,2!ped-up! |!ped! F,2 D,2 C,2 G,,2!ped-up! | %613
!ped! [C,,C,]2 [G,C]E !/-![G,C]2 E2!ped-up! |!ped! !/-![G,C]2 E2 !/-![G,C]2 E2!ped-up! | %615
!ped! [G,,G,]2 [G,D]F !/-![G,D]2 F2!ped-up! |!ped! !/-![G,D]2 F2 !/-![G,D]2 F2!ped-up! | %617
!ped! [C,C]2 [G,C]E!ped-up! !/-![G,C]2 E2 |!ped! !/-![G,C]2 E2!ped-up! !/-![G,C]2 E2 | %619
!ped! !>![G,,G,]2 [G,D]F!ped-up! !/-![G,D]2 F2 |!ped! !/-![G,D]2 F2!ped-up! !/-![G,D]2 F2 | %621
!ped! [C,C]2 [G,G]2 [G,G]2 [G,G]2!ped-up! |!ped! [G,G]2!ped-up! E2 C2 G,2 | [E,E]2 C2 G,2 E,2 | %624
 [C,,C,]2 G,,2 [C,,C,]2 G,,2 |!ped! [C,,E,,G,,C,]2 z2!ped-up! .C2 .G,2 | %626
!ped! (E2 C2)!ped-up! .G,2 .E,2 |!ped! [C,,E,,G,,C,]2 z2!ped-up! .E,2 .C,2 | %628
!ped! (E2 C2)!ped-up! .G,2 .E,2 |!ped! [C,,E,,G,,C,]2 z2!ped-up! .E,2 .C,2 | %630
!ped! (E2 C2)!ped-up! .G,2 .E,2 | [C,,E,,G,,C,]2 z2 z4 | [C,,E,,G,,C,]2 z2 z4 | %633
!ped! !/-!C,,2 C,2 !/-!C,,2 C,2 | !/-!C,,2 C,2 !/-!C,,2 C,2 | !/-!C,,2 C,2 !/-!C,,2 C,2 | %636
 !/-!C,,2 C,2 !/-!C,,2 C,2!ped-up! | [C,,E,,G,,C,]2 z2 !fermata!z4 |] %638
V:3
 x6 | x6 | x6 | x6 | z2 [^A,^C]2!p! [CE] z | z2 [^A,^C]2!p! [CE] z | z2 [B,D]2!p! [D^F] z | %7
 x2!mp! [B,D]2 [=F_A]!>(![_EG]/[DF]/ | x2!>)! x4 | x4 _AA | [DF]3 [_D=E]2 [D_E] | %11
 C/_E/F/_D/ C[CE] D[DE] | [C_E] .F.[EG]._D.[CE][_B,D] | x2 _E4 | _E6- | E2 =E2 ^F2- | A,2 x4 | %17
 ^A6- | A2 B2 ^c2 | x6 | x6 | x6 | x6 | x6 | x6 | %25
 (3.[_EG]/._d/._B/ (3.[EG]/.d/.B/ (3.[EG]/.d/.B/ (3.[EG]/.d/.B/ (3.[EG]/.d/.B/ (3E/D/_B,/ | x6 | %27
 x6 | x6 | x6 | x6 | x6 | x6 |!8va(! x6 | x2!8va)! x4 | x6 ||[M:4/4][K:treble] x8 | x8 | x8 | x8 | %40
 x8 | x8 | x8 | x8 | x8 | x8 | x8 | x8 | D6 D2 | F6 F2 | F6 F2 | F6 F2 | F6 F2 | B6 B2 | B6 B2 | %55
 d6 d2 | d6 d2 | f6 f2 | f6 f2 | f6 f2 |!8va(! f6 g2 | f6 g2 | f6 g2 | f6 g2 | x8 | x8 | x8 | x8 | %68
 x8 | x8!8va)! | x8 | x8 | x8 | x8 | x8 | x8 | x8 | x8 | x8 | x8 | x8 | x8 | x8 | x8 | x8 | x8 | %86
 x8 | x8 | x8 | x8 | x8 | x8 | x8 | x8 | x8 | x8 | x8 | x8 | x8 | x8 | x8 | x8 | x8 | x8 | x8 | %105
 x8 | x8 | x8 | x8 | x8 | x8 | x8 | x8 | x8 | x8 | x8 | x8 | x8 | x8 | x8 | x8 | x8 | x8 | x8 | %124
 x8 | x8 | x8 | x8 | x8 | x4 =B2 c2 | c2 x2 x4 | x8 | [dd']2 [cc']2 x4 | z4 ^c2 d2- | d2 x2 d4 | %135
 z4 ^d2 e2 | e2 x2 e4 | !/-!^c2 ^A2 !/-!c2 A2- | [A^c]2 x2 x4 | !/-!^f2 B2 !/-!f2 B2- | B2 x2 x4 | %141
 !/-![^D^F]2 B,2 !/-![DF]2 B,2 | !/-![^D^F]2 B,2 !/-![DF]2 B,2 | [B,E]2 .B2 x4 | x8 | x8 | x8 | %147
 x8 | x8 | x8 | x8 | x8 | x8 | x8 | x8 | x8 | x8 | x8 | x8 | x8 | x8 | x2 ^c4 c2 | z2 ^d4 d2 | %163
 z2 e4 e2 | z2 ^f4 f2 | x8 | x8 | x8 | x8 | x8 | x8 | x8 | x8 | x8 | x8 | x8 | %176
 [B,^F]2 [FA]4 [B,F]2 | [E^G]2 x6 | [B^f]2 [fa]4 [Bf]2 | x8 | x8 | x8 | x8 | x8 | x8 | x8 | x8 | %187
 x8 | x8 | x8 | x8 | !/-![G_B]2 E2 !/-![GB]2 E2 | !/-![G_B]2 E2 !/-![GB]2 E2 | %193
 !/-![G_B]2 E2 !/-![GB]2 E2 | !/-![G_B]2 E2 !/-![GB]2 E2 | x8 | x8 | x8 | x8 | %199
 !/-![G_B]2 E2 !/-![GB]2 E2 | !/-![G_B]2 E2 !/-![GB]2 E2 | !/-![G_B]2 E2 !/-![GB]2 E2 | %202
 !/-![G_B]2 E2 !/-![GB]2 E2 | x8 | x8 | x8 | x8 | x8 | x8 | x8 | x8 | !/-![A^c]2 E2 !/-![Ac]2 E2 | %212
 !/-![A^c]2 E2 !/-![Ac]2 E2 | !/-![A^c]2 E2 !/-![Ac]2 E2 | !/-![A^c]2 E2 !/-![Ac]2 E2 | x8 | x8 | %217
 x8 | x8 | !/-![^ce]2 A2 !/-![ce]2 A2 | !/-![^ce]2 A2 !/-![ce]2 A2 | !/-![^ce]2 A2 !/-![ce]2 A2 | %222
 !/-![^ce]2 A2 !/-![ce]2 A2 | x8 | x8 | x8 | x8 |!8va(! x8 | x8 | x4!8va)! x4 | x8 | ^F8 | %232
 z2 D2 E2 ^F2 | x8 | x8 | !/-![^fb]2 d2 !/-![fb]2 d2 | !/-![^fb]2 d2 !/-![fb]2 d2 | %237
 !/-![^fb]2 d2 !/-![fb]2 d2 | !/-![gb]2 d2 !/-![gb]2 d2 | x8 | x8 | x8 | x8 | x8 | x8 | x8 | x8 | %247
 G8 | z2 _E2 F2 G2 |!8va(! x8 | x8 | x2!8va)! x6 | x8 | x8 | x8 | x8 | x8 | x8 | x8 | x8 | x8 | %261
 x8 | x8 | x8 | x8 | x8 | x8 | x8 | x8 | x8 | x8 | x8 | x8 | x8 | x8 | x8 | x8 | x8 | x8 | x8 | %280
 x8 | x8 | x8 | x8 | x8 | x8 | x8 | x8 | x8 | x8 | x8 | x8 | x8 | x8 | x8 | x8 | x8 | x8 | x8 | %299
 x8 | x8 | x8 | x8 | x8 | x8 | x8 | x8 | x8 | x8 | x8 | x8 | x8 | x8 | x8 | x8 | x8 | x8 | x8 | %318
 x8 | x8 | x8 | x8 | x8 | x8 | x8 | x8 | x8 | x8 | x8 | x8 | x8 | x8 | x8 | x8 | x8 | x8 | x8 | %337
 CA,CA, C!pp!A,CA, | x8 | x8 | x8 | x8 | x8 | x8 | x8 | x8 | x8 | x8 | x8 | x8 | x8 | x8 | x8 | %353
 x8 | x8 | D8- | D8 | F8- | F8 | x8 | x8 | x8 | x8 | x8 | x8 | x8 | x8 | x8 | x8 | x8 | x8 | x8 | %372
 x8 | x8 | x8 | x8 | x8 | x8 | x8 | x8 | x8 | x8 | x8 | x8 | x8 | x8 | x8 | x8 | x8 | %389
 !/-![Gc]2 E2 !/-![Gc]2 E2 | [Gc]2 [eg]c [eg]c[eg]c | fcfc f!f!cfc | ^fcfc f!f!cfc | %393
 gdgd [=fg]!f!d[fg]d | gege [_ea]!f!c[ea]c | gdgd [=fg]!f!d[fg]d | g=ege [_ea]!f!c[ea]c | %397
 gdgd [_ea]!f!c[ea]c | gdgd [_ea]!f!c[ea]c | x8 | x8 | x8 | x8 | x8 | x8 | x8 | x8 | x8 | x8 | %409
 _E4 z4 | x8 | x8 | [_A_a]2 [_G_g]2 _E4 | z4 =G2 _A2 | _E2 x2 x4 | x8 | [_B_b]2 [_A_a]2 F4 | %417
 z4 =A2 _B2 | [F_B]2 x2 B4 | z4 =B2 c2 | [Gc]2 x2 c4 | !/-!A2 ^F2 !/-!A2 F2- | [FA]2 x2 x4 | %423
 !/-!d2 G2 !/-!d2 G2- | [Gd]2 x2 x4 | !/-![B,D]2 G,2 !/-![B,D]2 G,2 | %426
 !/-![B,D]2 G,2 !/-![B,D]2 G,2 | [G,C]2 z2 z2 G2 | F2 z2 z2 [G-f]2 | [Ge]2 z2 z2 [G-e]2 | %430
 [Gd]2 z2 z2 [G-d]2 | x8 | x8 | x8 | x8 | x8 | x8 | x8 | x8 | x8 | x8 | x8 | x8 | x8 | x8 | %445
 x2 A4 A2 | z2 B4 B2 | z2 c4 c2 | z2 d4 x2 | x8 | x8 | x8 | x8 | x8 | x8 | x8 | x8 | x8 | x8 | x8 | %460
 x8 | x8 | x8 | x8 | x8 | x8 | x8 | x8 | x8 | x8 | x8 | x8 | x8 | x8 | x8 | x8 | x8 | x8 | x8 | %479
 x8 | x8 | x8 | x8 | x8 | x8 | x8 | x8 | x8 | x8 | x8 | x8 | B4 x4 | x8 | B4 x4 | x8 | B4 x4 | %496
 B4 z4 | B2 z2 z4 | x8 | x8 | x8 | x8 | x8 | x8 | x8 | x8 | x8 | x8 | x8 | x8 | x8 | x8 | x8 || %513
 x8 | x8 | x8 | x8 | x8 | x8 | x8 | x8 | x8 | x8 | x8 | x8 | x8 | x8 | x8 | x8 | x8 | x8 | x8 | %532
 x8 | x8 | x8 | x8 | x8 | x8 | x8 | x8 | x8 | x8 | x8 | x8 | x8 | x8 | x8 | x8 | x8 | x8 | x8 | %551
 x8 | x8 | x8 | x8 | x8 | x8 | x8 | x8 | x8 | x8 | g4 x4 | [eg]4 [eg]2 [eg]2 | [eg]4 [eg]2 [eg]2 | %564
 [eg]4 [eg]2 [eg]2 | g4 g2 g2 | g4 g2 g2 | g4 g2 g2 | g4 g2 g2 | x8 | x8 | x8 | x8 | x8 | x8 | x8 | %576
 x8 | x8 | x8 | x8 | x8 | x8 | x8 | x8 | x8 | x8 | x8 | x8 | x8 | !/-!d2 F2 !/-!d2 F2 | %590
 !/-!d2 F2 !/-!c2 E2 | !/-!d2 F2 !/-!d2 F2 | !/-!d2 F2 !/-!c2 E2 | x8 | x8 | x8 | x8 | x8 | x8 | %599
 x8 | x8 | x8 | x8 |!8va(! x8 | x8 | x8 | x8 | x8 | x8 | x8 | x8 | x8 | x8 | x8 | x8 | x8 | x8 | %617
 e4 x4 | x8 | f4 x4 | x8 | x8 | x2!8va)! x6 | x8 | x8 | x8 | x8 | x8 | x8 | x8 | x8 | x8 | x8 | %633
 x8 | x8 | x8 | x8 | x8 |] %638
V:4
 x6 | x6 | x6 | x6 | [^F,,,^F,,]6 | [^F,,,^F,,]6 | [^F,,,^F,,]6 | [G,,,G,,]4 [G,,,G,,]2 | %8
 [_A,,,_A,,-]2 A,,4 | _A,,6 | _A,,4 G,,2 | _A,,_D, _E,2 _E,,2 | x6 | x6 | x2 F,,4 | %15
 F,,2 =E,,2 ^D,,2 | E,,6 | ^C,2 =C,4- | C,2 B,,2 ^A,,2 | B,,[K:treble] x x4 | x2 B,4- | G, x x4 | %22
 x4/3[K:bass] x14/3 | x6 | x6 | x6 | x6 | x[K:treble] x5 |[K:bass] x[K:treble] x5 |[K:bass] x6 | %30
 x6 | z G,,3 z2 | G,G,/ x/ x4 | x G,,3 z2 | G,-G,/ x/ x4 | x6 ||[M:4/4] x8 | x8 | x8 | x8 | x8 | %41
 x8 | x8 | x8 | x8 | x8 | x8 | x8 | x8 | x8 | x8 | x8 | x8 | x8 | x8 | x8 | x8 | x8 | x8 | x8 | %60
 x8 | x8 | x8 | x8 | x8 | x8 | x8 | x8 | x8 | x8 | x8 | x8 | x8 | x8 | x8 | x8 | x8 | x8 | x8 | %79
 x8 | x8 | x8 | x8 | x8 | x8 | x8 | x8 | x8 | x8 | x8 | x8 | E,2 C,2 .A,,2 .G,,2 | G,,8 | %93
 F,2 D,2 .A,,2 .G,,2 | G,,8 | E,2 C,2 .A,,2 .G,,2 | G,,8 | F,2 D,2 .A,,2 .G,,2 | G,,8 | %99
 G,,2 E,2 .C,2 x2 | x8 | x8 | x8 | x8 | x8 | x8 | x8 | x8 | x8 | x8 | x8 | x8 | x8 | x8 | x8 | x8 | %116
 x8 | x8 | x8 | x8 | x8 | x8 | E,4 ^D,4 | x8 | x8 | _B,,8- | B,,8 | x8 | x8 | x8 | x8 | x8 | x8 | %133
 x8 | x8 | x8 | x8 | x8 | x8 | x8 | x8 | x8 | x8 | x8 | x8 | x8 | x8 | x8 | x8 | x8 | x8 | x8 | %152
 x8 | x8 | x8 | x8 | x8 | x8 | x8 | x8 | x8 | x8 | x8 | x8 | x8 | x8 | x8 | x8 | x8 | x8 | x8 | %171
 x8 | x8 | x8 | x8 | x8 | x8 | x8 | x8 | x8 | x8 | x8 | x8 | x8 | x8 | x8 | x8 | x8 | x8 | x8 | %190
 x8 | x8 | x8 | x8 | x8 | x8 | x8 | x8 | x8 | x8 | x8 | x8 | x8 | x8 | x8 | x8 | x8 | x8 | x8 | %209
 x8 | x8 | x8 | x8 | x8 | x8 | x8 | x8 | x8 | x8 | x8 | x8 | x8 | x8 | x8 | x8 | x8 | x8 | x8 | %228
 x8 | x8 | x8 | ^F,,8- | F,,8 | ^F,,8 | ^F,,8 | x8 | x8 | x8 | x8 | x8 | x8 | x8 | x8 | x8 | x8 | %245
 x8 | x8 | G,,8 | G,,8 | G,,8 | G,,8 | x8 | x8 | x8 | x8 | x8 | x8 | x8 | x8 | x8 | x8 | x8 | x8 | %263
 x8 | x8 | x8 | x8 | x8 | x8 | x8 | x8 | x8 | x8 | x8 | x8 | x8 | x8 | x8 | x8 | x8 | x8 | x8 | %282
 x8 | x8 | x8 | x8 | x8 | x8 | x8 | x8 | x8 | x8 | x8 | x8 | x8 | x8 | x8 | x8 | x8 | x8 | x8 | %301
 x8 | x8 | x8 | x8 | x8 | x8 | x8 | x8 | x8 | x8 | x8 | x8 | x8 | x8 | x8 | x8 | x8 | x8 | x8 | %320
 x8 | x8 | x8 | x8 | x8 | x8 | x8 | x8 | x8 | x8 | x8 | x8 | x8 | x8 | x8 | x8 | x8 | x8 | x8 | %339
 x8 | x8 | x8 | x8 | x8 | x8 |[K:treble] x8 | x8 | x8 | x8 | x8 | x8 |[K:bass] D,,2 =F,,4 B,,2 | %352
 F,,2 B,,4 D,2 | x8 | x8 | F,2 D,4 B,,2 | D,2 B,,4 F,,2 | D,2 B,,4 F,,2 | B,,2 F,,4 D,,2- | x8 | %360
 x8 | x8 | x8 | x8 | x8 | x8 | x8 | x8 | x8 | x8 | x8 | x8 | x8 | x8 | x8 | x8 | x8 | x8 | x8 | %379
 x8 | x8 | x8 | x8 | x8 | x8 | x8 | x8 | x8 | x8 | x8 | x8 | x8 | x8 | x8 | x8 | x8 | x8 | x8 | %398
 x8 | x8 | x8 | x8 | x8 | x8 | x8 | x8 | C,4 B,,4 | x8 | x8 | [_G,,_G,]4 z4 | _G,8 | x8 | x8 | %413
 _A,,8 | x8 | x8 | x8 | _B,,8 | x8 | C,8 | x8 | x8 | x8 | x8 | x8 | x8 | x8 | x8 | x8 | x8 | x8 | %431
 x8 | x8 | x8 | x8 | x8 | x8 | x8 | x8 | x8 | x8 | x8 | x8 | x8 | x8 | x8 | x8 | x8 | x8 | x8 | %450
 x8 | x8 | x8 | x8 | x8 | x8 | x8 | x8 | x8 | x8 |[K:treble] x8 | x8 | x8 | x8 | x8 | x8 | %466
[K:bass] z2 G,,2 A,,2 B,,2 | x8 | [C,-F,]8 | [C,E,]8- | [C,E,]2 C,6- | C,4 [C,A,]4- | x8 | x8 | %474
 x8 | x8 | x8 | x8 | x8 | x8 | x8 | x8 | x8 | x8 | x8 | x8 | x8 | x8 | x8 | x8 | x8 | G,,,2 z2 z4 | %492
 x8 | G,,,2 z2 z4 | x8 | x8 | x8 | x8 | x8 | x8 | x8 | x8 | x8 | x8 | x8 | x8 | x8 | x8 | x8 | x8 | %510
 x8 | x8 | x8 || x8 | x8 | x8 | x8 | x8 | x8 | x8 | x8 |[K:treble] x8 | x8 | x8 | x5[K:bass] x3 | %525
 x8 | x8 | x8 | x8 | x8 | x8 | x8 | x8 | x8 | x8 | x8 | x8 | x8 | x8 | x8 | x8 | x8 | x8 | x8 | %544
 x8 | x8 | x8 | x8 | x8 | x8 | x8 | x8 | x8 | x8 | x8 | x8 | x8 | x8 | x8 | x8 | x8 | x8 | x8 | %563
 x8 | x8 | x8 | x8 | x8 | x8 | x8 | x8 | x8 | x8 | x8 | x8 | x8 | x8 | x8 | x8 | x8 | x8 | x8 | %582
 x8 | x8 | x8 | x8 | x8 | x8 | x8 | G,,,8- | G,,,8 | G,,,8- | G,,,8 | x8 | x8 | x8 | x8 | x8 | x8 | %599
 x8 | x8 | x8 | x8 | x8 | x8 | x8 | x8 | x8 | x8 | x8 | x8 | x8 | x8 | x8 | x8 | x8 | x8 | x8 | %618
 x8 | x8 | x8 | x8 | x8 | x8 | x8 | x8 | x8 | x8 | x8 | x8 | x8 | x8 | x8 | x8 | x8 | x8 | x8 | %637
 x8 |] %638
V:5
 x6 | x6 | x6 | x6 | x6 | x6 | x6 | x6 | x6 | x4 F,>_E, | x6 | x6 | x6 | x6 | x6 | x6 | x6 | x6 | %18
 x6 | x2/3[K:treble] x16/3 | x6 | x6 | x4/3[K:bass] x14/3 | x6 | x6 | x6 | x6 | x[K:treble] x5 | %28
[K:bass] x[K:treble] x5 |[K:bass] x6 | x6 | x6 | x6 | x6 | x6 | x6 ||[M:4/4] x8 | x8 | x8 | x8 | %40
 x8 | x8 | x8 | x8 | x8 | x8 | x8 | x8 | x8 | x8 | x8 | x8 | x8 | x8 | x8 | x8 | x8 | x8 | x8 | %59
 x8 | x8 | x8 | x8 | x8 | x8 | x8 | x8 | x8 | x8 | x8 | x8 | x8 | x8 | x8 | x8 | x8 | x8 | x8 | %78
 x8 | x8 | x8 | x8 | x8 | x8 | x8 | x8 | x8 | x8 | x8 | x8 | x8 | x8 | x8 | x8 | x8 | x8 | x8 | %97
 x8 | x8 | x8 | x8 | x8 | x8 | x8 | x8 | x8 | x8 | x8 | x8 | x8 | x8 | x8 | x8 | x8 | x8 | x8 | %116
 x8 | x8 | x8 | x8 | x8 | x8 | x8 | x8 | x8 | x8 | x8 | x8 | x8 | x8 | x8 | x8 | x8 | x8 | x8 | %135
 x8 | x8 | x8 | x8 | x8 | x8 | x8 | x8 | x8 | x8 | x8 | x8 | x8 | x8 | x8 | x8 | x8 | x8 | x8 | %154
 x8 | x8 | x8 | x8 | x8 | x8 | x8 | x8 | x8 | x8 | x8 | x8 | x8 | x8 | x8 | x8 | x8 | x8 | x8 | %173
 x8 | x8 | x8 | x8 | x8 | x8 | x8 | x8 | x8 | x8 | x8 | x8 | x8 | x8 | x8 | x8 | x8 | x8 | x8 | %192
 x8 | x8 | x8 | x8 | x8 | x8 | x8 | x8 | x8 | x8 | x8 | x8 | x8 | x8 | x8 | x8 | x8 | x8 | x8 | %211
 x8 | x8 | x8 | x8 | x8 | x8 | x8 | x8 | x8 | x8 | x8 | x8 | x8 | x8 | x8 | x8 | x8 | x8 | x8 | %230
 x8 | x8 | x8 | x8 | x8 | x8 | x8 | x8 | x8 | x8 | x8 | x8 | x8 | x8 | x8 | x8 | x8 | x8 | x8 | %249
 x8 | x8 | x8 | x8 | x8 | x8 | x8 | x8 | x8 | x8 | x8 | x8 | x8 | x8 | x8 | x8 | x8 | x8 | x8 | %268
 x8 | x8 | x8 | x8 | x8 | x8 | x8 | x8 | x8 | x8 | x8 | x8 | x8 | x8 | x8 | x8 | x8 | x8 | x8 | %287
 x8 | x8 | x8 | x8 | x8 | x8 | x8 | x8 | x8 | x8 | x8 | x8 | x8 | x8 | x8 | x8 | x8 | x8 | x8 | %306
 x8 | x8 | x8 | x8 | x8 | x8 | x8 | x8 | x8 | x8 | x8 | x8 | x8 | x8 | x8 | x8 | x8 | x8 | x8 | %325
 x8 | x8 | x8 | x8 | x8 | x8 | x8 | x8 | x8 | x8 | x8 | x8 | x8 | x8 | x8 | x8 | x8 | x8 | x8 | %344
 x8 |[K:treble] x8 | x8 | x8 | x8 | x8 | x8 |[K:bass] x8 | x8 | x8 | x8 | x8 | x8 | x8 | x8 | x8 | %360
 x8 | x8 | x8 | x8 | x8 | x8 | x8 | x8 | x8 | x8 | x8 | x8 | x8 | x8 | x8 | x8 | x8 | x8 | x8 | %379
 x8 | x8 | x8 | x8 | x8 | x8 | x8 | x8 | x8 | x8 | x8 | x8 | x8 | x8 | x8 | x8 | x8 | x8 | x8 | %398
 x8 | x8 | x8 | x8 | x8 | x8 | x8 | x8 | x8 | x8 | x8 | x8 | x8 | x8 | x8 | x8 | x8 | x8 | x8 | %417
 x8 | x8 | x8 | x8 | x8 | x8 | x8 | x8 | x8 | x8 | x8 | x8 | x8 | x8 | x8 | x8 | x8 | x8 | x8 | %436
 x8 | x8 | x8 | x8 | x8 | x8 | x8 | x8 | x8 | x8 | x8 | x8 | x8 | x8 | x8 | x8 | x8 | x8 | x8 | %455
 x8 | x8 | x8 | x8 | x8 |[K:treble] x8 | x8 | x8 | x8 | x8 | x8 |[K:bass] x8 | x8 | x8 | x8 | %470
 x2 C,2 D,2 E,2 | F,2 G,2 x4 | x8 | x8 | x8 | x8 | x8 | x8 | x8 | x8 | x8 | x8 | x8 | x8 | x8 | %485
 x8 | x8 | x8 | x8 | x8 | x8 | x8 | x8 | x8 | x8 | x8 | x8 | x8 | x8 | x8 | x8 | x8 | x8 | x8 | %504
 x8 | x8 | x8 | x8 | x8 | x8 | x8 | x8 | x8 || x8 | x8 | x8 | x8 | x8 | x8 | x8 | x8 | %521
[K:treble] x8 | x8 | x8 | x5[K:bass] x3 | x8 | x8 | x8 | x8 | x8 | x8 | x8 | x8 | x8 | x8 | x8 | %536
 x8 | x8 | x8 | x8 | x8 | x8 | x8 | x8 | x8 | x8 | x8 | x8 | x8 | x8 | x8 | x8 | x8 | x8 | x8 | %555
 x8 | x8 | x8 | x8 | x8 | x8 | x8 | x8 | x8 | x8 | x8 | x8 | x8 | x8 | x8 | x8 | x8 | x8 | x8 | %574
 x8 | x8 | x8 | x8 | x8 | x8 | x8 | x8 | x8 | x8 | x8 | x8 | x8 | x8 | x8 | x8 | x8 | x8 | x8 | %593
 x8 | x8 | x8 | x8 | x8 | x8 | x8 | x8 | x8 | x8 | x8 | x8 | x8 | x8 | x8 | x8 | x8 | x8 | x8 | %612
 x8 | x8 | x8 | x8 | x8 | x8 | x8 | x8 | x8 | x8 | x8 | x8 | x8 | x8 | x8 | x8 | x8 | x8 | x8 | %631
 x8 | x8 | x8 | x8 | x8 | x8 | x8 |] %638
V:6
 x6 | x6 | x6 | x6 | x6 | x6 | x6 | x6 | x6 | x6 | x6 | x6 | x6 | x6 | x6 | x6 | B6 | x6 | x6 | %19
 x6 | x6 | x6 | x6 | x6 | x6 | x6 | x6 | x6 | x6 | x6 | x6 | x6 | x6 |!8va(! x6 | x2!8va)! x4 | %35
 x6 ||[M:4/4][K:treble] x8 | x8 | x8 | x8 | x8 | x8 | x8 | x8 | x8 | x8 | x8 | x8 | x8 | x8 | x8 | %51
 x8 | x8 | x8 | x8 | x8 | x8 | x8 | x8 | x8 |!8va(! x8 | x8 | x8 | x8 | x8 | x8 | x8 | x8 | x8 | %69
 x8!8va)! | x8 | x8 | x8 | x8 | x8 | x8 | x8 | x8 | x8 | x8 | x8 | x8 | x8 | x8 | x8 | x8 | x8 | %87
 x8 | x8 | x8 | x8 | x8 | x8 | x8 | x8 | x8 | x8 | x8 | x8 | x8 | x8 | x8 | x8 | x8 | x8 | x8 | %106
 x8 | x8 | x8 | x8 | x8 | x8 | x8 | x8 | x8 | x8 | x8 | x8 | x8 | x8 | x8 | x8 | x8 | x8 | x8 | %125
 x8 | x8 | x8 | x8 | x8 | x8 | x8 | x8 | [G_B]8 | x8 | [A=c]8 | x8 | x8 | x8 | x8 | x8 | x8 | x8 | %143
 x8 | x8 | x8 | x8 | x8 | x8 | x8 | x8 | x8 | x8 | x8 | x8 | x8 | x8 | x8 | x8 | x8 | x8 | x8 | %162
 x8 | x8 | x8 | x8 | x8 | x8 | x8 | x8 | x8 | x8 | x8 | x8 | x8 | x8 | x8 | x8 | x8 | x8 | x8 | %181
 x8 | x8 | x8 | x8 | x8 | x8 | x8 | x8 | x8 | x8 | x8 | x8 | x8 | x8 | x8 | x8 | x8 | x8 | x8 | %200
 x8 | x8 | x8 | x8 | x8 | x8 | x8 | x8 | x8 | x8 | x8 | x8 | x8 | x8 | x8 | x8 | x8 | x8 | x8 | %219
 x8 | x8 | x8 | x8 | x8 | x8 | x8 | x8 |!8va(! x8 | x8 | x4!8va)! x4 | x8 | x8 | x8 | x8 | x8 | %235
 x8 | x8 | x8 | x8 | x8 | x8 | x8 | x8 | x8 | x8 | x8 | x8 | x8 | x8 |!8va(! x8 | x8 | %251
 x2!8va)! x6 | x8 | x8 | x8 | x8 | x8 | x8 | x8 | x8 | x8 | x8 | x8 | x8 | x8 | x8 | x8 | x8 | x8 | %269
 x8 | x8 | x8 | x8 | x8 | x8 | x8 | x8 | x8 | x8 | x8 | x8 | x8 | x8 | x8 | x8 | x8 | x8 | x8 | %288
 x8 | x8 | x8 | x8 | x8 | x8 | x8 | x8 | x8 | x8 | x8 | x8 | x8 | x8 | x8 | x8 | x8 | x8 | x8 | %307
 x8 | x8 | x8 | x8 | x8 | x8 | x8 | x8 | x8 | x8 | x8 | x8 | x8 | x8 | x8 | x8 | x8 | x8 | x8 | %326
 x8 | x8 | x8 | x8 | x8 | x8 | x8 | x8 | x8 | x8 | x8 | x8 | x8 | x8 | x8 | x8 | x8 | x8 | x8 | %345
 x8 | x8 | x8 | x8 | x8 | x8 | x8 | x8 | x8 | x8 | x8 | x8 | x8 | x8 | x8 | x8 | x8 | x8 | x8 | %364
 x8 | x8 | x8 | x8 | x8 | x8 | x8 | x8 | x8 | x8 | x8 | x8 | x8 | x8 | x8 | x8 | x8 | x8 | x8 | %383
 x8 | x8 | x8 | x8 | x8 | x8 | x8 | x8 | x8 | x8 | x8 | x8 | x8 | x8 | x8 | x8 | x8 | x8 | x8 | %402
 x8 | x8 | x8 | x8 | x8 | x8 | x8 | x8 | x8 | x8 | x8 | x8 | x8 | x8 | x8 | x8 | x8 | x8 | x8 | %421
 x8 | x8 | x8 | x8 | x8 | x8 | x8 | x8 | x8 | x8 | x8 | x8 | x8 | x8 | x8 | x8 | x8 | x8 | x8 | %440
 x8 | x8 | x8 | x8 | x8 | x8 | x8 | x8 | x8 | x8 | x8 | x8 | x8 | x8 | x8 | x8 | x8 | x8 | x8 | %459
 x8 | x8 | x8 | x8 | x8 | x8 | x8 | x8 | x8 | x8 | x8 | x8 | x8 | x8 | x8 | x8 | x8 | x8 | x8 | %478
 x8 | x8 | x8 | x8 | x8 | x8 | x8 | x8 | x8 | x8 | x8 | x8 | x8 | x8 | x8 | x8 | x8 | x8 | x8 | %497
 x8 | x8 | x8 | x8 | x8 | x8 | x8 | x8 | x8 | x8 | x8 | x8 | x8 | x8 | x8 | x8 || x8 | x8 | x8 | %516
 x8 | x8 | x8 | x8 | x8 | x8 | x8 | x8 | x8 | x8 | x8 | x8 | x8 | x8 | x8 | x8 | x8 | x8 | x8 | %535
 x8 | x8 | x8 | x8 | x8 | x8 | x8 | x8 | x8 | x8 | x8 | x8 | x8 | x8 | x8 | x8 | x8 | x8 | x8 | %554
 x8 | x8 | x8 | x8 | x8 | x8 | x8 | x8 | x8 | x8 | x8 | x8 | x8 | x8 | x8 | x8 | x8 | x8 | x8 | %573
 x8 | x8 | x8 | x8 | x8 | x8 | x8 | x8 | x8 | x8 | x8 | x8 | x8 | x8 | x8 | x8 | x8 | x8 | x8 | %592
 x8 | x8 | x8 | x8 | x8 | x8 | x8 | x8 | x8 | x8 | x8 |!8va(! x8 | x8 | x8 | x8 | x8 | x8 | x8 | %610
 x8 | x8 | x8 | x8 | x8 | x8 | x8 | x8 | x8 | x8 | x8 | x8 | x2!8va)! x6 | x8 | x8 | x8 | x8 | x8 | %628
 x8 | x8 | x8 | x8 | x8 | x8 | x8 | x8 | x8 | x8 |] %638

